AIResearcherHZ/figaroh-examples/examples/ur10/data/identification_q_simulation.csv
q1,q2,q3,q4,q5,q6,dq1,ddq1,dq2,ddq2,dq3,ddq3,dq4,ddq4,dq5,ddq5,dq6,ddq6
-0.1396263401595554,0.4188790204786667,0.0698131700797778,0.4188790204786667,-0.9773843811168887,0.977384381116889,0.0,0.0,0.0,0.0,0.0,0.0,0.0,0.0,0.0,0.0,0.0,0.0
-0.1396381418031741,0.4188835589596887,0.0698118015400201,0.4188805469536358,-0.97737766080773,0.9773669132900616,-0.0017613329508895,-0.1743541708961342,0.0006773443114643,0.0670502449732372,-0.0002042473275536,-0.0202184223234882,0.0002278183233257,0.0225517128140664,0.0010029706322183,0.0992839615731306,-0.0026069808549927,-0.2580647715043299
-0.139719332884503,0.4189147820836597,0.0698023864766306,0.4188910485547147,-0.9773314274876016,0.9772467408976052,-0.0069037207061903,-0.3381414223440179,0.0026549187908594,0.1300368387359751,-0.0008005678334148,-0.0392114857182802,0.0008929567094054,0.0437366551545531,0.0039312437309764,0.1925507133539503,-0.0102183222656259,-0.5004892538265794
-0.1399354354925018,0.4189978872524733,0.0697773268306739,0.4189190001886155,-0.9772083703624516,0.9769268835069386,-0.0152179813911106,-0.4915774057609621,0.005852279730549,0.189042712945571,-0.0017647044122606,-0.0570041975094514,0.0019683586815171,0.063582720296431,0.0086657031024265,0.279923055542302,-0.0225244103440096,-0.7275926365418924
-0.1403478312089178,0.4191564795802019,0.0697295046838561,0.4189723412111706,-0.9769735364020644,0.9763164891253228,-0.0264992461592046,-0.6348777725642784,0.0101906420560437,0.2441507992593819,-0.0030729001052693,-0.0736215650220772,0.0034275256284384,0.0821178015146712,0.0150896885567177,0.3615237883380291,-0.0392220149937564,-0.9396941092254142
-0.141013847368853,0.4194126050657596,0.0696522722555945,0.4190584865846434,-0.9765942812199816,0.9753307065240322,-0.040546959192373,-0.7682581741712777,0.0155928793260014,0.295444029334765,-0.0047018981001206,-0.089088595581233,0.0052445168044462,0.0993697920842446,0.0230889959079958,0.4374757119409744,-0.0600142899099819,-1.1371128614522887
-0.1419868433213308,0.4197867837655653,0.0695394419000881,0.4191843380350375,-0.9760402199534224,0.9738905575625232,-0.0571648777008624,-0.8919342619992716,0.0219835237322272,0.3430053348290773,-0.006628941730996,-0.1034302965119944,0.0073939493293169,0.1153665852801223,0.0325518769744037,0.5079016265509809,-0.0846107725793045,-1.3201680827976603
-0.1433162966898629,0.4202980429662051,0.069385276103387,0.419356295209407,-0.9752831781432024,0.9719228095126056,-0.0761610719232658,-1.0061216874655712,0.0292887660996731,0.3869176473996761,-0.0088317744785782,-0.1166716751394366,0.0098509981883263,0.1301360743772753,0.0433690395780811,0.5729243323678923,-0.1127273842798459,-1.4891789628366745
-0.1450478896330164,0.4209639503570959,0.0691844774804627,0.4195802668331665,-0.9742971426136552,0.9693598473826108,-0.0973479251265226,-1.1110361019874873,0.0374364558864385,0.4272638987039184,-0.0112886399700518,-0.1288377387886351,0.0125913962322495,0.1437061526506746,0.0554336475451644,0.632666629591551,-0.1440864300812301,-1.644464691144475
-0.1472235951049806,0.4218006472031479,0.0689321787722781,0.4198616818674014,-0.973058212352551,0.9661395462415636,-0.1205421336059182,-1.2068931569823316,0.0463561011837699,0.4641270203991614,-0.0139782819791025,-0.1399534947846655,0.0155914341773614,0.1561047133752912,0.0686413207057871,0.6872513184218001,-0.1784165988445844,-1.7863444572962055
-0.1498817631161342,0.4228228815174279,0.0686239328428572,0.4202055006661773,-0.9715445493910178,0.9622051435433504,-0.1455647066850842,-1.293908503867415,0.0559788687160607,0.4975899441427621,-0.0168799444259178,-0.150043950452603,0.0188279606054358,0.1673596498260962,0.0828901348940793,0.7368011990584833,-0.2154529632225389,-1.9151374508670125
-0.1530572069936116,0.4240440412338219,0.0682557026763553,0.4206162261338503,-0.9697363296834612,0.9575051114508908,-0.1722409667159985,-1.3722977940600496,0.0662375838408518,0.5277356015920778,-0.0199733713771865,-0.1591341131175233,0.0222783819637463,0.1774988552780605,0.0980806219481682,0.781439071701443,-0.2549369796592264,-2.031162861432039
-0.1567812896418705,0.4254761873796981,0.0678238513741291,0.4210979148823771,-0.9676156939874836,0.951993029160306,-0.2004005490789852,-1.4422766789775456,0.077066730548831,0.5546469244044654,-0.0232388070460991,-0.1672489901045016,0.0259206625650657,0.1865502230061552,0.1141157697101778,0.8212877365505223,-0.2966164883902828,-2.13473987856643
-0.1610820098032586,0.4271300872485701,0.0673251321518061,0.4216541883886247,-0.9651666987438056,0.9456274552250896,-0.2298774021827148,-1.5040608100372144,0.0884024514638333,0.5784068442372826,-0.0266569957923475,-0.1744135887386133,0.0297333245876665,0.1945416462853513,0.130901022026229,0.8564699938055653,-0.340245713442847,-2.2261876918453303
-0.1659840883185801,0.4290152475727596,0.0667566783363553,0.4222882441516807,-0.9623752669561854,0.938371799880278,-0.2605097874642037,-1.5578658386563684,0.1001825478428408,0.5990982927478857,-0.030209182122125,-0.1806529163449341,0.0336954480753203,0.2015010183906198,0.1483442787464391,0.887108643666414,-0.3855852626355605,-2.305825490843883
-0.1715090543876634,0.4311399476960595,0.0661159933631566,0.4230028668501629,-0.9592291390713384,0.930194197366619,-0.2921402793888148,-1.6039074162523173,0.112346479575983,0.6168042015936321,-0.0338771106881267,-0.1859919802485392,0.0377866709372982,0.2074562325969317,0.1663558957249231,0.9133264863329114,-0.4324021275785676,-2.3739724651372343
-0.1776753318299275,0.4335112727463965,0.0654009407730711,0.4238004394995298,-0.9557178238588578,0.9210673782547428,-0.3246157654502571,-1.6424011942423724,0.1248353651865361,0.6316075024318794,-0.037643026289549,-0.1904557877745041,0.041987188948371,0.2124351821792581,0.1848486848197922,0.9352463220049017,-0.4804696836735161,-2.4309478043005286
-0.1844983253449489,0.4361351468084947,0.0646097342095109,0.4246829546093901,-0.9518325492911354,0.9109685417693314,-0.3577874461705859,-1.6735628240438456,0.1375919818309239,0.6435911269199842,-0.0414896738720898,-0.1940693462479043,0.0462777557488085,0.2164657604125699,0.2037379138931547,0.9529909508822264,-0.529567690113556,-2.4770706979089083
-0.1919905067730288,0.4390163660965377,0.063740927415509,0.4256520253408129,-0.9475662134232796,0.8998792281132892,-0.3915108351002025,-1.697607957074049,0.1505607652987169,0.6528380067153039,-0.0454002985279486,-0.1968576629938152,0.0506396828443801,0.2195758605718382,0.2229413068111158,0.9666831731647298,-0.5794822898833406,-2.51266033553752
-0.2001615013557598,0.4421586321268324,0.0627934042307898,0.4267088966636378,-0.942913335273038,0.8877851907919121,-0.4256457588178547,-1.7147522447502923,0.1636878100126332,0.6594310734751955,-0.0493586454958263,-0.1988457453373122,0.0550548396063548,0.221793375932034,0.2423790434437774,0.9764457890522548,-0.630006009759026,-2.538035906761508
-0.2090181739965931,0.4455645848904712,0.0617663685888382,0.4278544565137848,-0.9378700057007152,0.8746762689370581,-0.4600563569306367,-1.7252113384898866,0.1769208690285376,0.663453258857016,-0.0533489601609255,-0.2000586006034707,0.0595056532715009,0.2231461997681282,0.2619737596652385,0.9824015987446444,-0.6809377603082711,-2.553516601156016
-0.218564715521405,0.4492358360259954,0.0606593345139703,0.429089246950564,-0.9324338382890944,0.8605462596313168,-0.4946110820739879,-1.7292008897101452,0.1902093540354423,0.6649874945181229,-0.0573559880549501,-0.2005212361173663,0.0639751089420858,0.2236622253550921,0.2816505473535945,0.9846734024417414,-0.7320828358902377,-2.5594216082961903
-0.2288027289390642,0.4531730019920581,0.059472116118403,0.4304134753139861,-0.9266039202233568,0.8453927902321796,-0.5291826999116955,-1.7269365498283769,0.2035043353555068,0.6641167121158731,-0.0613649748561056,-0.2002586592040741,0.0684467495858768,0.2233693459678964,0.3013369543909384,0.983384000343389,-0.7832529146555909,-2.5560701177571734
-0.2397313157019987,0.457375737240087,0.0582048175993241,0.4318270253820722,-0.9203807631710018,0.8292171906962098,-0.5636482891358917,-1.7186339702618945,0.2167585419440373,0.6609238433076239,-0.065361666389099,-0.19929587718867,0.0729046760361404,0.2222954548815122,0.3209629846633595,0.9786561926494308,-0.8342660585464978,-2.54378131911411
-0.2513471619667623,0.4618427673869473,0.0568578232359624,0.4333294685281633,-0.9137662541617668,0.8120243659032119,-0.5978892414670552,-1.7045088024280086,0.2299263613894875,0.6554918197507318,-0.0693323086251388,-0.1976578973962292,0.0773335469916425,0.2204684453709107,0.3404610980609439,0.970612779559708,-0.8849467132966289,-2.522874401942145
-0.2636446248546021,0.4665719223876048,0.0554317873866572,0.4349200748782311,-0.9067636064675476,0.7938226679804024,-0.6317912616540113,-1.6847766977440302,0.2429638399134581,0.6479035731025551,-0.0732636476819351,-0.1953697271518269,0.0817185790166485,0.2179162107110628,0.359766210477775,0.9593765612740668,-0.9351257084311584,-2.493668555816422
-0.2766158187120251,0.4715601697077889,0.0539276244859288,0.4365978244681875,-0.899377310482319,0.7746237686265787,-0.6652443674739312,-1.6596533076272708,0.2558286823706969,0.6382420350204497,-0.0771429298236993,-0.1924563737805387,0.0860455465409232,0.2146666441769393,0.3788156938119328,0.945070337992348,-0.984640257266762,-2.4564829703120883
-0.2902507013713652,0.4768036474966553,0.0523464990415483,0.4383614184011948,-0.891613084602053,0.7544425314362905,-0.6981428897323325,-1.6293542834950423,0.268480252249099,0.626590137161773,-0.0809579014611446,-0.1889428446074404,0.0903007818597307,0.2107476390435116,0.397549375965494,0.9278169099143952,-1.0333339569116191,-2.411636835004285
-0.30453716041135,0.4822976977594491,0.0506898156316074,0.4402092900049753,-0.8834778261046413,0.7332968842240081,-0.7303854722630784,-1.5940952767646566,0.2808795716697064,0.6130308111838829,-0.0846968091514853,-0.184854146957607,0.0944711751338347,0.2061870885857506,0.4159095408445326,0.9077390772400517,-1.0810567882654114,-2.3594493394681595
-0.3194610994176678,0.4880368995301677,0.0489592089015885,0.4421396159891218,-0.8749795620298134,0.7112076913482936,-0.7618750719283797,-1.5540919388534205,0.2929893213867084,0.5976469887441356,-0.0883483995984377,-0.1802152881561138,0.0985441743894983,0.201012886078627,0.433840928359119,0.88495964016916,-1.127665116019324,-2.300239673278856
-0.3350065242435351,0.4940151020442238,0.0471565335614347,0.4441503276024073,-0.8661274000590579,0.6881986260359702,-0.792518958618792,-1.5095599211786523,0.3047738407874418,0.5805216014998889,-0.0919019196522193,-0.1750512755280368,0.1025077855184839,0.1952529247971122,0.4512907344233209,0.8596013989015638,-1.1730216886560452,-2.2343270260115142
-0.3511556292702623,0.5002254579111083,0.0452838543826198,0.4462391217900949,-0.8569314793955414,0.6642960427062921,-0.8222287152532175,-1.4607148751576555,0.3161991278923897,0.5617375811084998,-0.0953471163095491,-0.169387116398451,0.1063505722780533,0.188935098016177,0.4682086109552026,0.8317871536371061,-1.216995638449765,-2.1620305872412846
-0.3678888836678216,0.5066604562870533,0.043343436195218,0.4484034723512483,-0.8474029216440301,0.6395288492951152,-0.850920237778905,-1.4077724522077475,0.3272328393551831,0.541377859227325,-0.0986742367136478,-0.1632478180924321,0.110061656290968,0.1820872990107926,0.4845466658768251,0.8016397045756309,-1.259462481466178,-2.0836695465433115
-0.3851851176554135,0.5133119560476948,0.0413377338849742,0.4506406410960409,-0.8375537816908084,0.613928379579066,-0.8785137351714503,-1.350948303746237,0.3378442904626,0.5195253675137225,-0.1018740281542374,-0.1566583879350552,0.1136307170454886,0.1747374210559298,0.5002594631142465,0.7692818519169773,-1.3003041175624808,-1.999563093492734
-0.4030216087620341,0.5201712189607358,0.039269382390374,0.4529476890030668,-0.8273969985835998,0.5875282654997123,-0.9049337294347926,-1.290458081190435,0.3480044551345649,0.4962630376250478,-0.1049377380675415,-0.149643833251396,0.1170479918953751,0.1669133574265598,0.515304022597522,0.7348363958609938,-1.339408830387371,-1.910030417664701
-0.4213741680870417,0.5272289428586097,0.0371411866997133,0.45532148737665,-0.8169463464114868,0.5603643094877329,-0.9301090556012211,-1.2265174359576547,0.3576859659241505,0.47167380121866,-0.1078571140362853,-0.1422291613665298,0.1203042760598873,0.1586430013976534,0.5296398202607031,0.6984261366075208,-1.3766712873810534,-1.8153907086343557
-0.4402172265607236,0.5344752948111422,0.0349561118481685,0.4577587290041547,-0.8062163851848307,0.5324743567870873,-0.953972861731368,-1.1593420194652049,0.3668631140175756,0.4458405899519148,-0.1106244037896952,-0.1344393796055324,0.1233909226237842,0.1499542462441822,0.5432287880418384,0.660173874356401,-1.4119925397752309,-1.7159631559768425
-0.4595239212048636,0.5418999442982155,0.0327172729148665,0.4602559393132955,-0.795222411715192,0.5038981677791861,-0.9764626089142132,-1.0891474831303969,0.3755118492342071,0.4188463354821703,-0.1132323552034995,-0.1262994952934785,0.126299842537324,0.1408749852411165,0.5560353138829739,0.6202024093074783,-1.4452800225931135,-1.612066949267308
-0.4792661813933083,0.5494920963824301,0.0304279250199547,0.4628094875294469,-0.7839804104952501,0.4746772903070603,-0.9975200712670832,-1.0161494783705447,0.3836097800265581,0.3907739694667823,-0.1156742162999278,-0.1178345157554442,0.1290235046162647,0.1314331116634275,0.5680262417301513,0.5786345416605956,-1.476447554649411,-1.5040212780808937
-0.4994148151125342,0.5572405248817686,0.0280914533216707,0.4654155978329538,-0.772507004578724,0.4448549319995323,-1.0170913359356502,-0.9405636566029552,0.3911361734802899,0.3617064235631089,-0.1179437352477112,-0.1090694483165046,0.1315549355418634,0.1216565187860862,0.5791708715334103,0.5355930716155954,-1.5054153385503382,-1.3921453319927473
-0.519939595222215,0.5651336055422579,0.0257113630134127,0.4680703605164408,-0.7608194064602916,0.4144758325953849,-1.035126803093933,-0.8626056692449424,0.3980719553142096,0.3317266294285075,-0.1200351603620824,-0.1000293003017351,0.133887719860877,0.111573099884064,0.5894409592467867,0.4912007993723224,-1.5321099606936095,-1.2767583005780074
-0.5408093457157881,0.5731593492106328,0.0232912693208089,0.4707697431421232,-0.7489353689555102,0.3835861362675311,-1.0515811859442945,-0.7824911677138191,0.4043997098802729,0.3009175187203349,-0.1219432401047756,-0.0907390790362114,0.1360159999855613,0.1012107482323315,0.5988107168283137,0.4455805251306175,-1.5564643912684484,-1.158179373411826
-0.5619920279810213,0.5813054350069986,0.0208348874987883,0.473509601699116,-0.7368731360807366,0.3522332639471854,-1.0664135107174464,-0.7004358034268958,0.4101036801635815,0.2693620230959483,-0.1236632230840263,-0.0812237918450091,0.1379344761936719,0.0905973571058603,0.6072568122400206,0.3988550490903262,-1.5784179842555743,-1.0367277400693444
-0.5834548270605808,0.5895592434974942,0.0183460228286496,0.4762856917607445,-0.7246513939330467,0.3204657856480317,-1.079587116672446,-0.6166552278014796,0.4151697677823851,0.2371430742127049,-0.1251908580545718,-0.071508446053203,0.1396384066284639,0.0797608197796205,0.6147583694479349,0.3511471714512892,-1.5979164774272134,-0.9127225901257026
-0.6051642379125968,0.5979078898669548,0.0158285606151322,0.479093679641854,-0.7122892215701563,0.2883332927903955,-1.0910696560966984,-0.5313650922548852,0.4195855329880798,0.2043436037279604,-0.126522393917651,-0.0616180489858687,0.1411236072986914,0.0687290295285837,0.6212969684220795,0.3025796924133512,-1.6149119923470965,-0.7864831131560548
-0.6270861516712312,0.6063382570915752,0.0132864561834854,0.48192915355612,-0.6998060418903405,0.2558862705254117,-1.100833094305949,-0.4447810482044261,0.4233401946652093,0.1710465432990739,-0.1276545797210037,-0.0515776079680823,0.1423864520786084,0.0575298796277206,0.6268566451364749,0.2532754121763543,-1.62936303437045,-0.6583284987355356
-0.6491859419072445,0.6148370291115722,0.0107237248765389,0.4847876347733578,-0.687221572512354,0.2231759700591962,-1.108853709644298,-0.3571187470674073,0.4264246303314641,0.1373348245834027,-0.1285846646588717,-0.0414121303249184,0.1434238727079679,0.0461912633520025,0.6314238915691393,0.2033571309401431,-1.6412344926440126,-0.5285779364392971
-0.6714285508885627,0.6233907240038483,0.0081444320517725,0.4876645887768333,-0.6745557766553517,0.1902542809770151,-1.115112093484184,-0.2685938402611438,0.4288313761376825,0.1032913792383014,-0.1293103980719984,-0.0311466233814526,0.1442333587920225,0.0347410739764003,0.6349876557020852,0.1529476489045569,-1.6504976401060183,-0.3975506158424755
-0.6937785758408435,0.6319857271546541,0.0055526830783859,0.4905554364205716,-0.6618288140188074,0.157173603567455,-1.1195931502263976,-0.1794219792029494,0.4305546268678489,0.068999138921129,-0.1298300294476283,-0.020806094462761,0.1448129578015245,0.0232072047758854,0.6375393415213245,0.1021697662694429,-1.6571301334862076,-0.2655657265202285
-0.716200355208044,0.640608324432251,0.0029526133343693,0.4934555650866687,-0.6490609916624354,0.1239867211465912,-1.1222860973000717,-0.0898188153101324,0.4315902359390962,0.0345410352892434,-0.1301423084195078,-0.0104155508939179,0.145161275072725,0.0116175490254283,0.6390728090168644,0.0511462832346434,-1.6611160133058251,-0.1329424580476841
-0.7386580549129884,0.6492447353595752,0.0003483782035727,0.4963603398426002,-0.6362727148861095,0.0907466723821608,-1.1231844651626868,0.0,0.4319357154017033,4.440892098500626e-16,-0.1302464847678846,0.0,0.1452774738073751,1.1102230246251563e-16,0.6395843741827112,8.881784197001252e-16,-1.6624457038776148,0.0
-0.7611157546179327,0.6578811462868993,-0.0022558569272239,0.4992651145985316,-0.6234844381097835,0.0575066236177306,-1.122286097300072,0.089818815310128,0.4315902359390965,-0.0345410352892434,-0.1301423084195079,0.0104155508939182,0.1451612750727251,-0.0116175490254279,0.6390728090168651,-0.0511462832346429,-1.6611160133058265,0.1329424580476832
-0.7835375339851335,0.6665037435644963,-0.0048559266712405,0.5021652432646287,-0.6107166157534114,0.0243197411968669,-1.1195931502263972,0.1794219792029485,0.4305546268678493,-0.0689991389211295,-0.1298300294476284,0.0208060944627616,0.1448129578015245,-0.0232072047758856,0.637539341521325,-0.1021697662694425,-1.6571301334862083,0.2655657265202267
-0.8058875589374144,0.6750987467153019,-0.0074476756446271,0.5050560909083672,-0.5979896531168671,-0.0087609362126933,-1.1151120934841845,0.2685938402611452,0.4288313761376822,-0.103291379238303,-0.1293103980719983,0.0311466233814529,0.1442333587920226,-0.0347410739764003,0.634987655702085,-0.1529476489045573,-1.6504976401060183,0.3975506158424755
-0.8281301679187325,0.683652441607578,-0.0100269684693935,0.5079330449118425,-0.5853238572598649,-0.0416826252948745,-1.108853709644298,0.3571187470674077,0.4264246303314645,-0.1373348245834029,-0.1285846646588717,0.0414121303249185,0.1434238727079679,-0.0461912633520027,0.6314238915691388,-0.20335713094014,-1.641234492644013,0.528577936439298
-0.8502299581547458,0.6921512136275751,-0.01258969977634,0.5107915261290804,-0.5727393878818784,-0.0743929257610902,-1.100833094305949,0.4447810482044216,0.4233401946652091,-0.1710465432990751,-0.1276545797210035,0.0515776079680821,0.1423864520786082,-0.0575298796277208,0.6268566451364753,-0.2532754121763529,-1.6293630343704493,0.6583284987355338
-0.8721518719133802,0.7005815808521956,-0.0151318042079868,0.5136270000433464,-0.5602562082020626,-0.106839948026074,-1.0910696560966966,0.531365092254882,0.4195855329880797,-0.2043436037279611,-0.1265223939176508,0.061618048985869,0.1411236072986914,-0.0687290295285832,0.6212969684220795,-0.3025796924133495,-1.6149119923470965,0.7864831131560521
-0.8938612827653962,0.7089302272216561,-0.0176492664215042,0.5164349879244559,-0.5478940358391722,-0.13897244088371,-1.079587116672447,0.616655227801477,0.4151697677823851,-0.2371430742127045,-0.1251908580545718,0.0715084460532035,0.139638406628464,-0.0797608197796206,0.6147583694479348,-0.3511471714512888,-1.597916477427214,0.9127225901257052
-0.9153240818449556,0.7171840357121517,-0.0201381310916428,0.5192110779860843,-0.5356722936914824,-0.1707399191828629,-1.0664135107174468,0.7004358034268963,0.4101036801635814,-0.2693620230959492,-0.1236632230840262,0.0812237918450095,0.1379344761936718,-0.09059735710586,0.6072568122400208,-0.3988550490903249,-1.5784179842555748,1.0367277400693382
-0.9365067641101892,0.7253301215085174,-0.0225945129136635,0.5219509365430772,-0.5236100608167087,-0.2020927915032091,-1.0515811859442945,0.7824911677138173,0.4043997098802727,-0.3009175187203357,-0.1219432401047755,0.0907390790362118,0.1360159999855613,-0.1012107482323317,0.5988107168283134,-0.4455805251306159,-1.5564643912684502,1.1581793734118264
-0.957376514603762,0.7333558651768923,-0.0250146066062672,0.5246503191687596,-0.5117260233119274,-0.2329824878310629,-1.035126803093933,0.8626056692449398,0.3980719553142096,-0.3317266294285086,-0.1200351603620823,0.1000293003017357,0.1338877198608768,-0.1115730998840642,0.5894409592467866,-0.4912007993723204,-1.5321099606936106,1.2767583005780097
-0.9779012947134428,0.7412489458373817,-0.0273946969145253,0.5273050818522467,-0.5000384251934948,-0.2633615872352108,-1.0170913359356497,0.9405636566029544,0.3911361734802894,-0.3617064235631084,-0.117943735247711,0.1090694483165054,0.1315549355418633,-0.1216565187860858,0.5791708715334098,-0.5355930716155948,-1.5054153385503364,1.392145331992749
-0.9980499284326684,0.74899737433672,-0.0297311686128093,0.5299111921557533,-0.4885650192769686,-0.2931839455427383,-0.9975200712670836,1.0161494783705454,0.3836097800265576,-0.3907739694667826,-0.1156742162999275,0.117834515755445,0.1290235046162646,-0.1314331116634277,0.5680262417301518,-0.5786345416605947,-1.4764475546494098,1.5040212780808933
-1.0177921886211134,0.7565895264209346,-0.0320205165077211,0.5324647403719048,-0.4773230180570269,-0.3224048230148646,-0.9764626089142134,1.0891474831303969,0.3755118492342069,-0.4188463354821703,-0.1132323552034993,0.126299495293479,0.1262998425373241,-0.1408749852411166,0.5560353138829743,-0.6202024093074785,-1.4452800225931144,1.6120669492673088
-1.0370988832652537,0.7640141759080079,-0.0342593554410231,0.5349619506810456,-0.4663290445873882,-0.3509810120227654,-0.953972861731366,1.159342019465203,0.3668631140175749,-0.4458405899519162,-0.1106244037896951,0.1344393796055325,0.1233909226237841,-0.149954246244182,0.5432287880418389,-0.6601738743563956,-1.4119925397752304,1.7159631559768371
-1.0559419417389355,0.7712605278605407,-0.0364444302925679,0.5373991923085504,-0.4555990833607322,-0.378870964723411,-0.930109055601222,1.2265174359576534,0.35768596592415,-0.4716738012186612,-0.1078571140362851,0.1422291613665303,0.1203042760598873,-0.1586430013976536,0.5296398202607029,-0.6984261366075186,-1.3766712873810525,1.8153907086343573
-1.0742945010639429,0.7783182517584145,-0.0385726259832286,0.5397729906821336,-0.445148431188619,-0.4060349207353908,-0.904933729434794,1.2904580811904331,0.3480044551345649,-0.4962630376250478,-0.1049377380675414,0.1496438332513965,0.1170479918953754,-0.1669133574265602,0.5153040225975216,-0.7348363958609951,-1.3394088303873728,1.9100304176646985
-1.0921309921705635,0.7851775146714555,-0.0406409774778288,0.5420800385891595,-0.4349916480814105,-0.4324350348147439,-0.8785137351714516,1.350948303746236,0.3378442904626004,-0.5195253675137232,-0.1018740281542373,0.156658387935056,0.1136307170454885,-0.1747374210559302,0.5002594631142472,-0.7692818519169755,-1.300304117562482,1.999563093492732
-1.109427226158156,0.791829014432097,-0.0426466797880726,0.5443172073339522,-0.425142508128189,-0.4580355045307935,-0.8509202377789036,1.4077724522077482,0.3272328393551824,-0.5413778592273255,-0.0986742367136477,0.1632478180924326,0.1100616562909679,-0.1820872990107926,0.4845466658768247,-0.8016397045756287,-1.2594624814661757,2.0836695465433053
-1.126160480555715,0.7982640128080418,-0.0445870979754743,0.5464815578951054,-0.4156139503766776,-0.4828026979419706,-0.8222287152532175,1.4607148751576575,0.3161991278923888,-0.5617375811085008,-0.095347116309549,0.1693871163984517,0.1063505722780534,-0.188935098016177,0.4682086109552017,-0.8317871536371033,-1.216995638449764,2.162030587241283
-1.142309585582442,0.8044743686749265,-0.0464597771542893,0.5485703520827931,-0.406418029713161,-0.5067052812716482,-0.7925189586187926,1.5095599211786492,0.3047738407874416,-0.5805216014998891,-0.0919019196522195,0.1750512755280375,0.1025077855184838,-0.1952529247971131,0.451290734423321,-0.8596013989015621,-1.1730216886560465,2.2343270260115133
-1.1578550104083094,0.8104525711889825,-0.048262452494443,0.5505810636960785,-0.3975658677424054,-0.5297143465839722,-0.7618750719283822,1.5540919388534231,0.2929893213867081,-0.5976469887441374,-0.0883483995984375,0.1802152881561145,0.0985441743894984,-0.2010128860786273,0.4338409283591193,-0.8849596401691571,-1.1276651160193225,2.30023967327886
-1.172778949414627,0.8161917729597012,-0.049993059224462,0.5525113896802251,-0.3890676036675776,-0.5518035394596859,-0.7303854722630794,1.5940952767646532,0.2808795716697063,-0.6130308111838838,-0.0846968091514853,0.1848541469576068,0.0944711751338347,-0.2061870885857506,0.4159095408445328,-0.9077390772400502,-1.0810567882654123,2.3594493394681635
-1.187065408454612,0.821685823222495,-0.0516497426344029,0.5543592612840056,-0.3809323451701658,-0.5729491866719685,-0.698142889732333,1.629354283495042,0.2684802522490987,-0.6265901371617746,-0.0809579014611445,0.1889428446074403,0.0903007818597307,-0.2107476390435116,0.397549375965494,-0.9278169099143936,-1.0333339569116191,2.4116368350042805
-1.200700291113952,0.8269293010113615,-0.0532308680787834,0.5561228552170128,-0.3731681192898999,-0.5931304238622561,-0.6652443674739299,1.65965330762727,0.255828682370697,-0.6382420350204487,-0.0771429298236991,0.1924563737805393,0.0860455465409233,-0.2146666441769393,0.3788156938119336,-0.9450703379923464,-0.9846402572667632,2.456482970312088
-1.2136714849713752,0.8319175483315454,-0.0547350309795116,0.5578006048069692,-0.3657818233046712,-0.6123293232160802,-0.631791261654012,1.6847766977440308,0.2429638399134579,-0.6479035731025551,-0.073263647681935,0.1953697271518268,0.0817185790166483,-0.2179162107110632,0.3597662104777743,-0.9593765612740645,-0.9351257084311584,2.4936685558164235
-1.225968947859215,0.8366467033322029,-0.0561610668288169,0.5593912111570372,-0.3587791756104521,-0.6305310211388906,-0.5978892414670556,1.7045088024280035,0.229926361389487,-0.6554918197507327,-0.0693323086251387,0.1976578973962293,0.0773335469916423,-0.2204684453709107,0.3404610980609446,-0.9706127795597066,-0.88494671329663,2.5228744019421434
-1.2375847941239788,0.8411137334790633,-0.0575080611921786,0.5608936543031283,-0.352164666601217,-0.647723845931889,-0.5636482891358909,1.718633970261891,0.2167585419440358,-0.6609238433076232,-0.0653616663890988,0.1992958771886703,0.0729046760361403,-0.2222954548815123,0.3209629846633577,-0.978656192649428,-0.8342660585464969,2.543781319114103
-1.248513380886913,0.845316468727092,-0.0587753597112575,0.5623072043712143,-0.3459415095488618,-0.6638994454678577,-0.5291826999116944,1.7269365498283769,0.203504335355507,-0.6641167121158764,-0.0613649748561053,0.2002586592040744,0.0684467495858769,-0.2233693459678973,0.3013369543909396,-0.9833840003433884,-0.7832529146555931,2.5560701177571694
-1.2587513943045716,0.8492536346931547,-0.0599625781068248,0.5636314327346365,-0.3401115914831243,-0.6790529148669953,-0.4946110820739866,1.729200889710139,0.1902093540354412,-0.6649874945181216,-0.0573559880549496,0.2005212361173662,0.0639751089420854,-0.2236622253550919,0.2816505473535944,-0.9846734024417376,-0.7320828358902354,2.5594216082961907
-1.2682979358293838,0.8529248858286791,-0.0610696121816927,0.5648662231714155,-0.3346754240715036,-0.6931829241727359,-0.4600563569306395,1.7252113384898884,0.1769208690285371,-0.6634532588570181,-0.0533489601609252,0.2000586006034712,0.059505653271501,-0.2231461997681285,0.2619737596652403,-0.9824015987446426,-0.680937760308268,2.5535166011560197
-1.2771546084702172,0.8563308385923177,-0.0620966478236443,0.5660117830215625,-0.3296320944991807,-0.70629184602759,-0.4256457588178541,1.71475224475029,0.1636878100126315,-0.6594310734751945,-0.0493586454958264,0.1988457453373122,0.0550548396063546,-0.2217933759320343,0.242379043443778,-0.9764457890522548,-0.6300060097590254,2.538035906761504
-1.2853256030529483,0.8594731046226125,-0.0630441710083636,0.5670686543443874,-0.3249792163489389,-0.7183858833489674,-0.3915108351002043,1.697607957074048,0.1505607652987164,-0.6528380067153057,-0.0454002985279484,0.1968576629938163,0.0506396828443804,-0.2195758605718385,0.2229413068111165,-0.9666831731647304,-0.5794822898833427,2.5126603355375217
-1.2928177844810282,0.8623543239106557,-0.0639129778023654,0.5680377250758103,-0.3207128804810832,-0.7294751970050104,-0.3577874461705868,1.6735628240438416,0.1375919818309223,-0.6435911269199845,-0.0414896738720892,0.1940693462479048,0.0462777557488081,-0.2164657604125697,0.2037379138931543,-0.9529909508822224,-0.529567690113554,2.477070697908907
-1.299640777996049,0.8649781979727535,-0.0647041843659255,0.5689202401856706,-0.3168276059133604,-0.7395740334904213,-0.3246157654502593,1.6424011942423675,0.1248353651865352,-0.6316075024318799,-0.0376430262895484,0.1904557877745043,0.0419871889483707,-0.2124351821792571,0.1848486848197934,-0.9352463220048984,-0.4804696836735171,2.430947804300523
-1.3058070554383134,0.8673495230230904,-0.065419236956011,0.5697178128350375,-0.3133162907008803,-0.7487008526022962,-0.2921402793888159,1.6039074162523086,0.1123464795759829,-0.6168042015936326,-0.0338771106881266,0.1859919802485397,0.0377866709372984,-0.2074562325969311,0.1663558957249247,-0.9133264863329096,-0.4324021275785696,2.3739724651372285
-1.3113320215073967,0.8694742231463902,-0.0660599219292098,0.5704324355335197,-0.3101701628160335,-0.756878455115956,-0.260509787464203,1.5578658386563653,0.1001825478428406,-0.5990982927478843,-0.0302091821221244,0.1806529163449344,0.0336954480753202,-0.2015010183906191,0.1483442787464408,-0.8871086436664104,-0.3855852626355567,2.305825490843894
-1.3162341000227182,0.87135938347058,-0.0666283757446608,0.5710664912965757,-0.3073787310284129,-0.7641341104607684,-0.2298774021827156,1.5040608100372133,0.0884024514638328,-0.5784068442372838,-0.026656995792347,0.1744135887386133,0.0297333245876663,-0.1945416462853515,0.1309010220262294,-0.8564699938055611,-0.3402457134428438,2.2261876918453254
-1.3205348201841065,0.8730132833394519,-0.0671270949669836,0.5716227648028234,-0.3049297357847351,-0.7704996843959853,-0.2004005490789904,1.442276678977546,0.0770667305488306,-0.5546469244044676,-0.0232388070460991,0.1672489901045022,0.0259206625650656,-0.1865502230061544,0.1141157697101782,-0.8212877365505182,-0.2966164883902884,2.134739878566428
-1.3242589028323657,0.8744454294853281,-0.0675589462692097,0.5721044535513501,-0.3028091000887577,-0.7760117666865693,-0.1722409667159983,1.3722977940600494,0.0662375838408513,-0.5277356015920756,-0.0199733713771863,0.1591341131175241,0.0222783819637462,-0.1774988552780603,0.0980806219481689,-0.7814390717014419,-0.2549369796592238,2.031162861432037
-1.327434346709843,0.8756665892017222,-0.0679271764357115,0.572515179019023,-0.3010008803812006,-0.7807117987790293,-0.145564706685084,1.2939085038674063,0.0559788687160605,-0.4975899441427636,-0.0168799444259175,0.150043950452603,0.0188279606054357,-0.1673596498260958,0.0828901348940789,-0.736801199058478,-0.2154529632225355,1.9151374508670145
-1.3300925147209963,0.8766888235160022,-0.0682354223651326,0.5728589978177988,-0.2994872174196679,-0.7846462014772413,-0.1205421336059195,1.2068931569823285,0.0463561011837692,-0.4641270203991645,-0.0139782819791021,0.1399534947846668,0.0155914341773613,-0.1561047133752908,0.0686413207057876,-0.6872513184217972,-0.1784165988445814,1.7863444572961953
-1.332268220192961,0.877525520362054,-0.0684877210733173,0.5731404128520338,-0.2982482871585635,-0.7878665026182887,-0.0973479251265256,1.1110361019874837,0.0374364558864375,-0.4272638987039148,-0.0112886399700513,0.128837738788635,0.0125913962322494,-0.1437061526506746,0.0554336475451666,-0.6326666295915437,-0.1440864300812308,1.6444646911444707
-1.3339998131361144,0.8781914277529452,-0.0686885196962414,0.5733643844757934,-0.2972622516290162,-0.7904294647482848,-0.0761610719232681,1.0061216874655727,0.0292887660996719,-0.3869176473996756,-0.0088317744785779,0.1166716751394365,0.0098509981883261,-0.1301360743772761,0.0433690395780823,-0.5729243323678901,-0.112727384279843,1.4891789628366894
-1.3353292665046466,0.8787026869535848,-0.0688426854929424,0.5735363416501629,-0.2965052098187963,-0.7923972127982035,-0.0571648777008633,0.8919342619992712,0.021983523732227,-0.343005334829078,-0.0066289417309959,0.1034302965119948,0.0073939493293164,-0.1153665852801224,0.0325518769744057,-0.5079016265509786,-0.0846107725793068,1.3201680827976645
-1.3363022624571246,0.8790768656533903,-0.0689555158484489,0.5736621931005571,-0.2959511485522373,-0.7938373617597108,-0.0405469591923761,0.7682581741712724,0.0155928793260002,-0.2954440293347637,-0.0047018981001205,0.0890885955812335,0.0052445168044461,-0.0993697920842446,0.0230889959079991,-0.4374757119409729,-0.0600142899099829,1.1371128614522874
-1.3369682786170596,0.8793329911389476,-0.0690327482767105,0.5737483384740297,-0.2955718933701537,-0.7948231443610001,-0.0264992461592079,0.6348777725642734,0.0101906420560418,-0.2441507992593852,-0.0030729001052689,0.0736215650220772,0.0034275256284383,-0.0821178015146708,0.0150896885567206,-0.361523788338026,-0.0392220149937507,0.9396941092254067
-1.337380674333474,0.8794915834666768,-0.0690805704235283,0.573801679496585,-0.2953370594097663,-0.795433538742617,-0.0152179813911104,0.4915774057609567,0.005852279730548,-0.1890427129455751,-0.0017647044122606,0.0570041975094524,0.0019683586815166,-0.0635827202964307,0.0086657031024266,-0.2799230555422944,-0.0225244103440083,0.7275926365418925
-1.3375967769414745,0.8795746886354903,-0.069105630069485,0.5738296311304859,-0.2952140022846169,-0.7957533961332843,-0.0069037207061946,0.3381414223440089,0.0026549187908591,-0.1300368387359753,-0.0008005678334146,0.039211485718281,0.0008929567094049,-0.0437366551545528,0.0039312437309746,-0.192550713353949,-0.0102183222656222,0.5004892538265864
-1.3376779680228037,0.8796059117594612,-0.0691150451328743,0.5738401327315646,-0.2951677689644879,-0.795873568525743,-0.0017613329508954,0.1743541708961302,0.0006773443114624,-0.0670502449732417,-0.0002042473275536,0.0202184223234889,0.0002278183233261,-0.0225517128140673,0.0010029706322196,-0.0992839615731284,-0.0026069808549955,0.2580647715043298
-1.3376897696664214,0.8796104502404836,-0.0691164136726324,0.5738416592065336,-0.2951610486553301,-0.7958910363525667,0.0,0.0,0.0,0.0,0.0,0.0,0.0,0.0,0.0,0.0,0.0,0.0
-1.3376852345360253,0.8796062190681393,-0.0691097942906466,0.5738483780310806,-0.295161940184896,-0.7958843145215052,0.0006768442482425,0.0670007437654262,-0.0006314801151155,-0.0625101528094139,0.0009879077849497,0.0977928918435074,0.001002749061754,0.0992620283352502,-0.0001330560769134,-0.0131712076136552,0.0010031977681689,0.099306445737934
-1.3376540344631611,0.8795771101178083,-0.0690642553133211,0.5738946011376115,-0.2951680735890071,-0.7958380707312308,0.002652958743035,0.129940836393554,-0.0024751494849788,-0.1212318115091664,0.0038722033942075,0.1896589417571053,0.0039303752633755,0.1925081761653338,-0.0005215266045002,-0.0255441602204223,0.0039321340130575,0.1925943190069023
-1.3375709906484294,0.8794996321488036,-0.0689430462888251,0.574017631077694,-0.2951843985917367,-0.7957149857381689,0.0058479591659452,0.1889031483157565,-0.0054560113894598,-0.1762422923055771,0.0085355595487528,0.2757191056985468,0.0086637887254765,0.2798612165617846,-0.0011496093918078,-0.0371351487388091,0.0086676655653823,0.2799864478164757
-1.3374125154047145,0.8793517783916,-0.0687117391197168,0.5742524131599226,-0.2952155521315229,-0.7954800985965288,0.0101831186071683,0.2439705499634074,-0.009500615432555,-0.2276189114049656,0.0148630680887201,0.3560943396255854,0.0150863550300996,0.3614439225961369,-0.0020018280662535,-0.0479604640873236,0.0150931058160511,0.3616056601762249
-1.3371565790090083,0.8791129956213507,-0.0683381796805602,0.5746315845591465,-0.2952658648775356,-0.7951007575270995,0.015581367565527,0.2952259117678801,-0.0145370575423871,-0.2754389850136514,0.0227422399733986,0.4309055994959741,0.0230838952207182,0.4373790673399245,-0.003063032073625,-0.0580363971844736,0.023094224716163,0.4375747840957205
-1.3367826765542423,0.8787641532314054,-0.0677924394355419,0.5751855234256992,-0.2953393677460444,-0.7945465707860463,0.0219672939484715,0.342752104160548,-0.0204949799712052,-0.3197798293379543,0.0320630052812331,0.5002738412674664,0.0325446858022364,0.5077894238646814,-0.00431839667808,-0.0673792389487671,0.0325592487770087,0.5080166475845332
-1.3362717948011114,0.8782875123068277,-0.0670467670560879,0.5759423979946262,-0.2954397984167855,-0.7937893575337067,0.0292671430720794,0.3866319975727845,-0.0273055712953849,-0.3607187605841939,0.042717713209823,0.5643200208978154,0.0433594587409888,0.5727977652419418,-0.0057534229621466,-0.076005280298712,0.0433788610700703,0.573054078652234
-1.3356063790299029,0.8776666946979119,-0.0660755400384809,0.576928215694914,-0.2955706078493296,-0.7928030987033865,0.0374088176610558,0.426948462435963,-0.034901566415428,-0.3983330949586898,0.0546011320759231,0.6231650943447745,0.055421401464741,0.6325268645432394,-0.0073539378267229,-0.0839308121528163,0.0554462012270211,0.6328099053083934
-1.334770299892324,0.8768866520937015,-0.0648552163214769,0.578166872258719,-0.2957349667994489,-0.7915638878701564,0.0463218778487334,0.4637843691814571,-0.043217246555963,-0.4327001486677614,0.0676104493154431,0.6769300175660965,0.0686261568626889,0.6870994948401086,-0.0091060939910771,-0.0911721254295878,0.0686568654397262,0.6874069555625822
-1.333748820263329,0.875933635095506,-0.063364285903922,0.5796802008305957,-0.2959357723354847,-0.7900498821196477,0.055937541177072,0.4972225882406401,-0.0521884392657445,-0.4638972379177286,0.0816452714834478,0.7257357465195353,0.0828718232854594,0.7366384292040832,-0.0109963699928476,-0.0977455110475345,0.0829089064602418,0.7369680574243713
-1.332528562092946,0.8747951622904184,-0.0615832224623696,0.5814880210767251,-0.2961756543547149,-0.7882412529168485,0.0661886825966594,0.5273459900448856,-0.0617525184176536,-0.4920016789149109,0.096607624254157,0.7697032371628438,0.0980589545451099,0.7812664407066973,-0.013011570188043,-0.1036672599251643,0.0981028336008156,0.7816160389033311
-1.3310974732581058,0.8734599893248332,-0.0594944349686972,0.5836081882941444,-0.296456982099721,-0.7861201369749007,0.0770098344667104,0.5542374450255669,-0.0718484042086978,-0.5170907878656281,0.1124019524209457,0.8089534454537752,0.1140905599151285,0.8211063024194845,-0.0151388247510421,-0.1089536629809851,0.1141416127338867,0.8214737280090323
-1.3294447944144685,0.8719180779779631,-0.0570822193077231,0.5860566425199741,-0.2967818706747561,-0.7836705871238945,0.0883371865550675,0.5779798236140573,-0.0824165631600111,-0.5392418809761995,0.1289351198963439,0.843607327350083,0.130872104130434,0.8562807874139795,-0.0173655896745938,-0.1136210111335049,0.1309306662920857,0.856663952751046
-1.3275610258482509,0.8701605652353568,-0.0543327098948235,0.5888474576406479,-0.2971521875621118,-0.7808785231796664,0.1001085860382006,0.5986559962417306,-0.0933990081168537,-0.5585322744529453,0.1461164097120366,0.8737858388095204,0.148311507387376,0.8869126687617161,-0.019679646769817,-0.1176855953012315,0.1483778732682344,0.8873095411389427
-1.3254378943280545,0.868179732362417,-0.0512338312935494,0.5919928905011406,-0.2975695591384858,-0.7777316828125943,0.1122635375012071,0.6163488333399603,-0.1047392982486122,-0.5750392845021843,0.163857524018864,0.8996099357898402,0.1663191453437345,0.913124719534228,-0.0220691036662011,-0.1211637064026729,0.1663935692153465,0.9135333211822932
-1.3230683199566915,0.8659689739779171,-0.0477752498332435,0.5955034300141966,-0.2980353771913492,-0.7742195724163938,0.1247432029378116,0.6311412053401187,-0.1163825390487995,-0.5888402273302366,0.1820725840868207,0.9212005742487964,0.1848078491187201,0.935039712803049,-0.0245223938116054,-0.124071635356337,0.184890546246626,0.9354581208906676
-1.320446383023015,0.8635227671275189,-0.0439483252266568,0.5993878462695597,-0.2985508054353142,-0.7703334179769146,0.1374904017503669,0.6431159826735808,-0.1282753823350556,-0.600012419143422,0.200678130305058,0.9386787101441416,0.2036929052929751,0.9527804216397138,-0.0270282764722594,-0.1264256730807318,0.2037840530354701,0.953206768273638
-1.317567290853744,0.8608366403572902,-0.039746062187566,0.6036532396431998,-0.2991167860285012,-0.7660661159409363,0.1504496107498527,0.6523560357717196,-0.1403660262491461,-0.6086331761480597,0.2195931221818807,0.95216529943363,0.2228920559085712,0.9664696191157566,-0.0295758367327629,-0.1282421104943652,0.2229917948154659,0.9669020913407744
-1.3144273446652903,0.8579071427872225,-0.03516306204839,0.6083050899065433,-0.2997340460889062,-0.7614121840849652,0.1635669641558761,0.6589442350659078,-0.1526042152569632,-0.6147798145504695,0.2387389383447492,0.9617812980750134,0.2423254984690114,0.9762300783027104,-0.0321544854960857,-0.129537238515745,0.2424339333803926,0.9766669181016472
-1.31102390641559,0.8547318131847477,-0.030195474377807,0.6133473053357007,-0.3004031042107683,-0.7563677123840301,0.1767902535966718,0.6629634509875199,-0.1649412401485255,-0.6185296505569712,0.258039376540279,0.9676476620260466,0.2619158859392293,0.9821845722721104,-0.0347539594835678,-0.1303273480633793,0.2620330870842206,0.982624076565828
-1.3073553656559258,0.8513091490382564,-0.0248409485983713,0.6187822718206953,-0.3011242769809372,-0.7509303138804783,0.1900689281091022,0.6644965539679285,-0.1773299380379782,-0.6199600003738841,0.2774206536342405,0.9698853472444814,0.2815883267455891,0.9844558740954896,-0.0373643212349193,-0.1306287300557759,0.2817143308411117,0.984896394742886
-1.303421106382758,0.847638575630615,-0.0190985856041303,0.6246109019746924,-0.3018976854952406,-0.7450990755527718,0.2033540941386569,0.6636264144385072,-0.1897246923635925,-0.6191481802075279,0.2968114056115594,0.9686153096880724,0.3012703847758857,0.983166756844382,-0.0399759591082206,-0.1304576754114426,0.3014051961254191,0.9836067006423934
-1.299221473889551,0.8437204151126831,-0.0129688893782414,0.6308326842432271,-0.3027232618748514,-0.738874509184284,0.2165985155394528,0.6604359028306298,-0.2020814328877662,-0.6161715062642227,0.3161426875763161,0.9639585053145722,0.3208920793793448,0.9784399935903229,-0.0425795872799222,-0.1298304750488877,0.3210356709716875,0.9788778222739208
-1.2947577416185998,0.8395558555768313,-0.0064537186105886,0.6374457320134336,-0.3036007557826549,-0.7322585022320953,0.2297566135742348,0.6550078895756699,-0.2143576356970239,-0.6111072947502876,0.3353479737517467,0.956035890081734,0.3403858853666226,0.9703983574048448,-0.0451662457448447,-0.1287634198866187,0.3405381999746532,0.9708325876470378
-1.290032078012859,0.8351469201304582,0.0004437616846001,0.6444468327232733,-0.3045297409396171,-0.7252542686957894,0.2427844669143749,0.6474252451049998,-0.2265123232020158,-0.6040328618720423,0.3543631574802416,0.944968419947311,0.359686733009806,0.9591646213594828,-0.0477273003161789,-0.1272728008431438,0.3598476842892436,0.9595938247713162
-1.2850475133677688,0.8304964359695082,0.0077191285511364,0.6518314969707639,-0.3055096216411512,-0.7178662999862495,0.2556398116398726,0.6377708398499939,-0.238506064137519,-0.5950255238358061,0.3731265512233469,0.9308770508690568,0.3787320080424129,0.94486155852577,-0.0502544426254858,-0.1253749088369708,0.3789014816305774,0.9452843616563266
-1.279807906683084,0.8256080034519889,0.0153667494732541,0.6595940076232076,-0.3065396392734852,-0.7101003157944548,0.268282041239355,0.6261275442420259,-0.2503009735624369,-0.5841625968478996,0.3915788865617634,0.9138827388047244,0.3974615516593914,0.9276119419752414,-0.0527396901226965,-0.1230860347866078,0.3976394062739652,0.9280270263116388
-1.2743179125146993,0.8204859651714886,0.0233798307579927,0.6677274689264199,-0.3076188788300296,-0.7019632149602761,0.2806722066100764,0.6125782287124683,-0.2618607128597993,-0.5715213971146416,0.409663314195347,0.8941064397120665,0.4158176605171206,0.90753854477943,-0.0551753860761122,-0.1204224696105625,0.4160037290549088,0.9079446467468246
-1.2685829478264796,0.8151353750306939,0.0317504659175805,0.676223855613958,-0.3087462754277448,-0.6934630263412723,0.2927730160579189,0.5972057636926953,-0.2731504897367625,-0.5571792408423516,0.4273254039431089,0.8716691095488378,0.4337450867334103,0.88476414000987,-0.0575541995724045,-0.1174005042273429,0.4339391773691012,0.8851600509714543
-1.262609158842085,0.8095619673149066,0.0404696840518173,0.6850740620163501,-0.3099206208235078,-0.6846088596814867,0.3045488352973919,0.5800930196140799,-0.2841370582246086,-0.5412134442373496,0.4445131447432152,0.8466917042727907,0.4511910378875006,0.8594115007380964,-0.0598691255166148,-0.1140364295554569,0.4513929351724272,0.8597960669950988
-1.2564033878967984,0.8037721257655619,0.0495274982304582,0.6942679511703231,-0.3111405699304808,-0.6754108564802428,0.3159656874516323,0.5613228669079955,-0.2947887186787471,-0.5237013235059553,0.4611769446529867,0.8192951798416779,0.4681051770200629,0.8316034000356424,-0.062113484632155,-0.1103465365134124,0.4683146429809625,0.831975522827329
-1.2499731402893557,0.7977728526537454,0.0589129538755957,0.7037944039280317,-0.3124046473344774,-0.6658801408609406,0.3269912530524046,0.5409781760058161,-0.3050753177787131,-0.5047201948544884,0.4772696308489003,0.7896004922132535,0.4844396226331988,0.8014626109740415,-0.064280923460807,-0.1063471160197174,0.4846563978709748,0.8018212464777152
-1.2433265511337692,0.7915717378537109,0.068614177144044,0.7136413680662871,-0.3137112538103307,-0.6560287704398531,0.3375948700401003,0.5191418173389146,-0.3149682485281684,-0.4843473744892678,0.4927464496265867,0.7577285973452702,0.5001489486904406,0.7691119066248289,-0.0663654143627228,-0.1020544589928798,0.5003727534789227,0.7694560659558283
-1.2364723522111585,0.7851769279163977,0.0786184233097209,0.7237959073957851,-0.3150586728382608,-0.6458696871949221,0.3477475337637388,0.4958966613386646,-0.324440450254901,-0.4626601786166144,0.5075650664008324,0.7238004511954832,0.5151901846167516,0.734674060059538,-0.0683612555164246,-0.0974848563514076,0.5154207200014567,0.7350028092712388
-1.2294198388215754,0.7785970951429478,0.0889121251460319,0.7342442508703355,-0.3164450771202415,-0.6354166683345542,0.3574218969809669,0.4713255784364399,-0.3334664086108255,-0.4397359234428465,0.5216855657055789,0.6879370097216417,0.5295228152985254,0.6982718443497028,-0.0702630709188049,-0.0926545990138086,0.5297597641954181,0.6985843044335177
-1.2221788366358337,0.771841406658224,0.0994809413082527,0.74497184169609,-0.3178685350963685,-0.6246842771664178,0.3665922698580591,0.4455114390636129,-0.3420221555719829,-0.4156519251742842,0.5350704511939227,0.6502592288815028,0.5431087810835863,0.6600280325668569,-0.0720658103851262,-0.0875799778985908,0.5433518093778403,0.6603233794522355
-1.2147596685473343,0.7649194934843269,0.1103098047159125,0.7559633864407711,-0.3193270174612263,-0.6136878139662383,0.3752346199699166,0.4185371136515584,-0.3500852694385403,-0.3904855000172478,0.5476846456381155,0.6108880646328179,0.5559124777811897,0.6200653977825361,-0.0737647495490211,-0.082277283924262,0.5561612354259475,0.6203428623369636
-1.2071731215238946,0.757841419614112,0.121382970935177,0.767202904142901,-0.3208184036802558,-0.6024432668465949,0.3833265723000691,0.3904854726316488,-0.3576348748347917,-0.3643139641780563,0.5594954909295635,0.5699444729333414,0.5679007566620216,0.5785067130682722,-0.0753554898624927,-0.0767628080093303,0.568154878777156,0.578765581097272
-1.1994304134595748,0.7506176510847086,0.1326840665612317,0.7786737754210296,-0.3223404885061216,-0.5909672626257163,0.3908474092406727,0.3614393864352578,-0.364651642709157,-0.3372146338630279,0.570472748078829,0.5275494097408249,0.5790429244581979,0.5354747514956006,-0.0768339585959137,-0.0710528410723035,0.5793020324290727,0.5357143637427308
-1.1915431600265058,0.7432590250510356,0.1441961376006651,0.7903587915829634,-0.3238909884950796,-0.5792770176962775,0.3977780705925119,0.3314817254937596,-0.3711177903341826,-0.3092648252784844,0.5805885972156279,0.4838238310130216,0.5893107433632666,0.4910922861360536,-0.0781964088380276,-0.0651636740316894,0.5895744459394967,0.4913120382829135
-1.1835233415267166,0.7357767188593202,0.1559016978538507,0.8022402037349943,-0.325467548523344,-0.5673902888941956,0.404101153564998,0.3006953602385274,-0.3770170813065416,-0.2805418546307462,0.5898176375888327,0.4388886927076885,0.5986784310322039,0.4454820900611689,-0.0794394194959474,-0.0591115978059965,0.5989463254264176,0.4456814327273886
-1.1753832697439612,0.7281822191206141,0.1677827772973322,0.8142997718911285,-0.3270677483034553,-0.5553253243674254,0.4098009127761707,0.2691631611009331,-0.3823348255470334,-0.2511230381261303,0.5981368875664703,0.3928649507825741,0.6071226605814211,0.3987669363424768,-0.0805598952951569,-0.052912903313732,0.6073943335680179,0.3989453750857257
-1.167135554795547,0.7204872907843127,0.1798209704662049,0.8265188140823139,-0.3286891089006472,-0.5431008144447568,0.4148632602526957,0.2369679985123516,-0.3870578793005832,-0.2210856919709569,0.6055257846357223,0.3458735611954353,0.6146225605887551,0.3510695980515117,-0.0815550667795096,-0.0465838814734041,0.6148975896026698,0.3512266933674979
-1.158793071984162,0.7127039462116709,0.1919974848364989,0.8388782554656699,-0.330329099249214,-0.53073584250461,0.4192757654298673,0.2041927429041556,-0.3911746451362435,-0.1905071323715466,0.611966185402926,0.2980354799040219,0.6211597150934764,0.3025128482598085,-0.0824224903112294,-0.0401408232035206,0.6214376693289378,0.3026482155822743
-1.1503689286497016,0.7048444142493219,0.2042931892075629,0.8513586774337155,-0.3319851426688786,-0.5182498358438323,0.4230276551516068,0.1709202647077208,-0.3946750719471924,-0.1594646755342201,0.6174423655935734,0.24947166286609,0.626718163596286,0.2532194600389037,-0.0831600480709101,-0.03360001942259,0.626998605105578,0.2533327697396275
-1.1418764310210967,0.6969211093027935,0.2166886620844471,0.8639403667235981,-0.3336546233811592,-0.5056625165464937,0.4261098136704633,0.1372334343544166,-0.3975506549507345,-0.1280356376652933,0.621941020052311,0.2003030660393916,0.6312844010593146,0.2033122064603265,-0.0837659480575161,-0.0269777610491195,0.631566885851537,0.2034031838491266
-1.1333290510681409,0.6889466004100265,0.2291642400602859,0.8766033645263218,-0.3353348930257369,-0.4929938523526834,0.4285147826476136,0.1032151222756196,-0.3997944356883023,-0.0962973349710891,0.6254512627429416,0.1506506453816785,0.6348473779061247,0.1529138605956137,-0.0842387240883814,-0.0202903390016173,0.6351314570459543,0.1529822859203431
-1.1247403933533178,0.6809335803148918,0.2417000661986817,0.8893275155959767,-0.3370232771768234,-0.4802640075273058,0.4302367611528609,0.0689481989027027,-0.401401002025452,-0.064327083657925,0.6279646267484232,0.1006353568507085,0.6373985000217091,0.1021471955162991,-0.0845772357992106,-0.0135540441985914,0.6376837207281593,0.1021929039628464
-1.1161241618836293,0.6728948345407076,0.2542761384160872,0.9020925173589668,-0.3387170818595282,-0.4674932937288772,0.4312716056646365,0.034515534667038,-0.4023664881518685,-0.0322021999321229,0.6294750642708665,0.0503781564042311,0.6389316287524898,0.0511349842939159,-0.0847806686440783,-0.0067851675585496,0.6392175354976742,0.0511578659862079
-1.1074941269624214,0.6648432104637575,0.2668723578641893,0.9148779690232386,-0.3404136000662258,-0.4547021208783209,0.4316168300699999,-2.220446049250313e-16,-0.4026885745813614,-4.440892098500626e-16,0.6299789466315407,-4.440892098500626e-16,0.6394430809063217,-4.440892098500626e-16,-0.0848485338954292,5.551115123125783e-17,0.6397292165142108,0.0
-1.0988640920412136,0.6567915863868073,0.2794685773122912,0.9276634206875104,-0.3421101182729233,-0.4419109480277648,0.4312716056646366,-0.0345155346670376,-0.4023664881518682,0.0322021999321227,0.6294750642708669,-0.0503781564042311,0.6389316287524898,-0.0511349842939177,-0.0847806686440783,0.0067851675585497,0.6392175354976743,-0.0511578659862097
-1.0902478605715251,0.6487528406126231,0.2920446495296967,0.9404284224505004,-0.343803922955628,-0.4291402342293362,0.4302367611528609,-0.0689481989027023,-0.4014010020254523,0.0643270836579255,0.6279646267484231,-0.100635356850709,0.6373985000217091,-0.1021471955163004,-0.0845772357992107,0.0135540441985915,0.6376837207281596,-0.1021929039628455
-1.081659202856702,0.6407398205174883,0.3045804756680924,0.9531525735201554,-0.3454923071067146,-0.4164103894039586,0.4285147826476132,-0.1032151222756199,-0.3997944356883021,0.0962973349710885,0.6254512627429417,-0.1506506453816807,0.6348473779061247,-0.1529138605956141,-0.0842387240883813,0.0202903390016174,0.6351314570459545,-0.1529822859203431
-1.0731118229037462,0.6327653116247214,0.3170560536439314,0.9658155713228792,-0.3471725767512923,-0.4037417252101484,0.4261098136704635,-0.1372334343544166,-0.3975506549507347,0.1280356376652927,0.6219410200523108,-0.2003030660393916,0.6312844010593147,-0.2033122064603265,-0.0837659480575161,0.0269777610491194,0.6315668858515366,-0.2034031838491268
-1.0646193252751412,0.624842006678193,0.3294515265208156,0.9783972606127618,-0.3488420574635729,-0.3911544059128097,0.4230276551516067,-0.1709202647077199,-0.3946750719471922,0.159464675534219,0.6174423655935724,-0.2494716628660906,0.626718163596286,-0.253219460038903,-0.0831600480709101,0.0336000194225901,0.6269986051055776,-0.2533327697396275
-1.056195181940681,0.616982474715844,0.3417472308918796,0.9908776825808072,-0.3504981008832374,-0.3786683992520318,0.419275765429867,-0.2041927429041563,-0.3911746451362432,0.1905071323715463,0.6119661854029255,-0.2980354799040237,0.6211597150934764,-0.3025128482598109,-0.0824224903112294,0.0401408232035206,0.6214376693289374,-0.3026482155822756
-1.0478526991292958,0.6091991301432023,0.3539237452621736,1.003237123964163,-0.3521380912318043,-0.3663034273118852,0.4148632602526961,-0.2369679985123518,-0.387057879300583,0.2210856919709587,0.6055257846357225,-0.3458735611954364,0.614622560588755,-0.351069598051513,-0.0815550667795096,0.0465838814734043,0.6148975896026698,-0.3512266933674999
-1.039604984180882,0.6015042018069008,0.3659619384310462,1.0154561661553487,-0.3537594518289962,-0.3540789173892165,0.4098009127761703,-0.2691631611009333,-0.3823348255470336,0.2511230381261304,0.5981368875664699,-0.3928649507825761,0.6071226605814206,-0.3987669363424788,-0.0805598952951569,0.0529129033137318,0.6073943335680174,-0.3989453750857277
-1.0314649123981263,0.5939097020681948,0.3778430178745277,1.027515734311483,-0.3553596516091075,-0.3420139528624463,0.4041011535649985,-0.3006953602385271,-0.377017081306542,0.2805418546307465,0.5898176375888329,-0.438888692707688,0.5986784310322042,-0.4454820900611702,-0.0794394194959474,0.0591115978059966,0.5989463254264185,-0.4456814327273886
-1.0234450938983368,0.5864273958764792,0.3895485781277137,1.039397146463514,-0.3569362116373719,-0.3301272240603643,0.3977780705925118,-0.3314817254937603,-0.3711177903341827,0.3092648252784857,0.5805885972156282,-0.4838238310130238,0.5893107433632654,-0.4910922861360562,-0.0781964088380275,0.0651636740316896,0.5895744459394965,-0.4913120382829152
-1.015557840465268,0.5790687698428061,0.4010606491671469,1.0510821626254478,-0.3584867116263299,-0.3184369791309255,0.3908474092406724,-0.3614393864352574,-0.3646516427091567,0.3372146338630286,0.5704727480788279,-0.5275494097408258,0.5790429244581976,-0.5354747514956006,-0.0768339585959136,0.0710528410723035,0.579302032429073,-0.5357143637427324
-1.007815132400948,0.5718450013134027,0.4123617447932017,1.0625530339035762,-0.3600087964521957,-0.306960974910047,0.3833265723000687,-0.3904854726316493,-0.3576348748347917,0.3643139641780566,0.5594954909295624,-0.5699444729333427,0.5679007566620204,-0.5785067130682737,-0.0753554898624926,0.0767628080093304,0.5681548787771553,-0.5787655810972732
-1.0002285853775086,0.5647669274431879,0.4234349110124663,1.073792551605706,-0.3615001826712252,-0.2957164277904036,0.3752346199699163,-0.4185371136515594,-0.3500852694385403,0.3904855000172467,0.5476846456381148,-0.6108880646328201,0.5559124777811899,-0.620065397782537,-0.0737647495490211,0.0822772839242624,0.5561612354259466,-0.6203428623369627
-0.9928094172890092,0.5578450142692906,0.4342637744201258,1.0847840963503876,-0.362958665036083,-0.284719964590224,0.3665922698580592,-0.4455114390636137,-0.3420221555719829,0.4156519251742843,0.5350704511939224,-0.650259228881505,0.5431087810835855,-0.6600280325668608,-0.0720658103851262,0.087579977898591,0.5433518093778402,-0.6603233794522367
-0.9855684151032672,0.551089325784567,0.4448325905823468,1.095511687176142,-0.36438212301221,-0.2739875734220875,0.3574218969809668,-0.4713255784364389,-0.3334664086108256,0.4397359234428446,0.5216855657055772,-0.6879370097216455,0.5295228152985234,-0.698271844349704,-0.0702630709188047,0.0926545990138086,0.529759764195417,-0.6985843044335178
-0.9785159017136844,0.5445094930111171,0.4551262924186575,1.1059600306506925,-0.3657685272941907,-0.2635345545617197,0.347747533763739,-0.4958966613386653,-0.3244404502549012,0.4626601786166153,0.5075650664008322,-0.7238004511954852,0.5151901846167506,-0.7346740600595405,-0.0683612555164245,0.0974848563514081,0.515420720001456,-0.73500280927124
-0.971661702791074,0.538114683073804,0.4651305385843345,1.1161145699801902,-0.3671159463221207,-0.2533754713167891,0.3375948700401008,-0.5191418173389151,-0.3149682485281686,0.4843473744892668,0.4927464496265865,-0.7577285973452703,0.5001489486904402,-0.7691119066248291,-0.0663654143627227,0.1020544589928802,0.5003727534789228,-0.7694560659558292
-0.9650151136354872,0.5319135682737697,0.4748317618527828,1.1259615341184452,-0.3684225527979741,-0.2435241008957014,0.3269912530524044,-0.5409781760058152,-0.3050753177787131,0.504720194854487,0.4772696308488999,-0.7896004922132551,0.4844396226331979,-0.8014626109740419,-0.064280923460807,0.1063471160197174,0.4846563978709746,-0.801821246477715
-0.9585848660280444,0.525914295161953,0.4842172174979203,1.135487986876154,-0.3696866302019707,-0.2339933852763993,0.3159656874516319,-0.5613228669079939,-0.2947887186787465,0.5237013235059553,0.4611769446529861,-0.8192951798416779,0.4681051770200621,-0.831603400035644,-0.0621134846321549,0.1103465365134123,0.4683146429809621,-0.831975522827328
-0.952379095082758,0.5201244536126085,0.493275031676561,1.144681876030127,-0.3709065793089436,-0.2247953820751554,0.3045488352973928,-0.580093019614079,-0.2841370582246085,0.5412134442373491,0.4445131447432153,-0.846691704272792,0.4511910378875003,-0.8594115007380969,-0.0598691255166148,0.114036429555457,0.4513929351724264,-0.8597960669950995
-0.9464053060983632,0.5145510458968212,0.5019942498107978,1.1535320824325188,-0.3720809247047067,-0.2159412154153698,0.2927730160579189,-0.5972057636926964,-0.2731504897367622,0.557179240842351,0.4273254039431085,-0.8716691095488391,0.4337450867334098,-0.8847641400098718,-0.0575541995724044,0.1174005042273432,0.4339391773691008,-0.8851600509714581
-0.9406703414101436,0.5092004557560262,0.5103648849703856,1.1620284691200573,-0.3732083213024219,-0.2074410267963661,0.2806722066100762,-0.6125782287124686,-0.2618607128598003,0.5715213971146405,0.4096633141953463,-0.8941064397120675,0.4158176605171197,-0.9075385447794302,-0.0551753860761122,0.1204224696105624,0.4160037290549079,-0.9079446467468256
-0.935180347241759,0.504078417475526,0.5183779662551241,1.170161930423269,-0.3742875608589663,-0.1993039259621872,0.2682820412393547,-0.6261275442420242,-0.2503009735624366,0.5841625968478983,0.3915788865617631,-0.9138827388047231,0.3974615516593909,-0.9276119419752424,-0.0527396901226965,0.1230860347866078,0.397639406273965,-0.9280270263116384
-0.929940740557074,0.4991899849580067,0.5260255871772421,1.1779244410757137,-0.3753175784913004,-0.1915379417703924,0.2556398116398726,-0.6377708398499937,-0.2385060641375185,0.5950255238358055,0.3731265512233475,-0.9308770508690536,0.3787320080424128,-0.9448615585257728,-0.0502544426254858,0.1253749088369713,0.3789014816305776,-0.9452843616563272
-0.9249561759119842,0.4945395007970565,0.533300954043778,1.1853091053232037,-0.3762974591928343,-0.1841499730608528,0.242784466914375,-0.6474252451049995,-0.2265123232020158,0.6040328618720423,0.3543631574802419,-0.94496841994731,0.3596867330098048,-0.9591646213594808,-0.047727300316179,0.1272728008431438,0.3598476842892428,-0.9595938247713196
-0.920230512306243,0.4901305653506836,0.5401984343389669,1.192310206033043,-0.3772264443497966,-0.1771457395245468,0.229756613574235,-0.6550078895756695,-0.2143576356970236,0.6111072947502878,0.3353479737517455,-0.9560358900817328,0.340385885366623,-0.9703983574048464,-0.0451662457448444,0.128763419886619,0.3405381999746533,-0.9708325876470348
-0.9157667800352915,0.4859660058148318,0.5467136051066198,1.1989232538032495,-0.3781039382576001,-0.170529732572358,0.2165985155394532,-0.6604359028306277,-0.2020814328877658,0.6161715062642221,0.3161426875763147,-0.9639585053145724,0.3208920793793433,-0.978439993590321,-0.0425795872799221,0.1298304750488874,0.3210356709716855,-0.978877822273919
-0.9115671475420848,0.4820478452968998,0.5528433013325084,1.2051450360717846,-0.3789295146372108,-0.1643051662038702,0.2033540941386569,-0.6636264144385065,-0.1897246923635926,0.619148180207528,0.2968114056115589,-0.968615309688074,0.3012703847758859,-0.9831667568443868,-0.0399759591082207,0.1304576754114428,0.3014051961254189,-0.983606700642394
-0.9076328882689172,0.4783772718892582,0.5585856643267498,1.2109736662257815,-0.3797029231515142,-0.1584739278761635,0.1900689281091017,-0.6644965539679282,-0.1773299380379773,0.6199600003738839,0.2774206536342403,-0.9698853472444836,0.2815883267455881,-0.9844558740954916,-0.0373643212349192,0.130628730055776,0.2817143308411105,-0.98489639474289
-0.9039643475092528,0.4749546077427671,0.5639401901061853,1.2164086327107766,-0.3804240959216832,-0.153036529372612,0.1767902535966725,-0.6629634509875215,-0.1649412401485257,0.6185296505569706,0.25803937654028,-0.9676476620260496,0.2619158859392296,-0.9821845722721144,-0.0347539594835676,0.1303273480633797,0.2620330870842196,-0.9826240765658288
-0.9005609092595523,0.4717792781402926,0.5689077777767683,1.221450848139933,-0.3810931540435453,-0.1479920576716769,0.1635669641558759,-0.6589442350659063,-0.1526042152569631,0.6147798145504701,0.2387389383447473,-0.9617812980750138,0.242325498469011,-0.9762300783027128,-0.0321544854960857,0.1295372385157454,0.2424339333803935,-0.976666918101648
-0.8974209630710992,0.4688497805702247,0.5734907779159443,1.226102698403277,-0.3817104141039502,-0.1433381258157059,0.1504496107498525,-0.6523560357717209,-0.140366026249147,0.608633176148059,0.2195931221818812,-0.9521652994336308,0.2228920559085718,-0.9664696191157612,-0.0295758367327629,0.1282421104943658,0.2229917948154671,-0.9669020913407796
-0.8945418709018275,0.4661636537999959,0.5776930409550354,1.2303680917769169,-0.3822763946971372,-0.139070823779728,0.1374904017503659,-0.6431159826735797,-0.1282753823350546,0.6000124191434217,0.2006781303050564,-0.9386787101441384,0.2036929052929741,-0.952780421639714,-0.0270282764722591,0.1264256730807318,0.2037840530354664,-0.9532067682736364
-0.8919199339681512,0.4637174469495974,0.5815199655616221,1.2342525080322804,-0.3827918229411022,-0.1351846693402484,0.1247432029378106,-0.6311412053401195,-0.1163825390488,0.5888402273302358,0.1820725840868213,-0.921200574248795,0.1848078491187186,-0.935039712803052,-0.0245223938116054,0.1240716353563371,0.1848905462466259,-0.9354581208906668
-0.8895503595967889,0.4615066885650977,0.584978547021928,1.2377630475453365,-0.3832576409939656,-0.1316725589440479,0.1122635375012075,-0.6163488333399592,-0.1047392982486123,0.5750392845021848,0.1638575240188631,-0.8996099357898402,0.1663191453437331,-0.9131247195342328,-0.0220691036662012,0.1211637064026729,0.1663935692153462,-0.913533321182296
-0.8874272280765918,0.4595258556921585,0.5880774256232019,1.2409084804058297,-0.3836750125703396,-0.128525718576976,0.1001085860382007,-0.5986559962417299,-0.0933990081168545,0.5585322744529435,0.1461164097120342,-0.8737858388095194,0.1483115073873744,-0.8869126687617186,-0.019679646769817,0.117685595301231,0.1483778732682337,-0.8873095411389453
-0.8855434595103739,0.4577683429495519,0.5908269350361015,1.243699295526503,-0.3840453294576954,-0.1257336546327471,0.0883371865550675,-0.5779798236140561,-0.0824165631600104,0.5392418809761974,0.1289351198963428,-0.843607327350087,0.1308721041304323,-0.8562807874139828,-0.0173655896745936,0.1136210111335052,0.1309306662920848,-0.8566639527510453
-0.8838907806667369,0.4562264316026816,0.5932391506970753,1.2461477497523328,-0.3843702180327304,-0.1232841047817415,0.0770098344667085,-0.5542374450255689,-0.0718484042086977,0.517090787865623,0.1124019524209432,-0.8089534454537741,0.1140905599151249,-0.8211063024194818,-0.0151388247510421,0.1089536629809846,0.1141416127338859,-0.8214737280090318
-0.8824596918318971,0.4548912586370961,0.595327938190748,1.2482679169697517,-0.3846515457777366,-0.1211629888397933,0.0661886825966586,-0.5273459900448838,-0.061752518417653,0.492001678914912,0.0966076242541564,-0.7697032371628474,0.0980589545451096,-0.7812664407066965,-0.0130115701880429,0.1036672599251644,0.098102833600814,-0.7816160389033282
-0.8812394336615137,0.4537527858320083,0.5971090016323004,1.250075737215881,-0.3848914277969668,-0.1193543596369943,0.0559375411770712,-0.4972225882406427,-0.0521884392657447,0.4638972379177275,0.0816452714834472,-0.7257357465195344,0.0828718232854583,-0.7366384292040866,-0.0109963699928475,0.0977455110475344,0.0829089064602408,-0.7369680574243702
-0.880217954032519,0.4527997688338132,0.5985999320498552,1.2515890657877575,-0.3850922333330026,-0.1178403538864862,0.0463218778487348,-0.4637843691814574,-0.0432172465559634,0.4327001486677613,0.0676104493154419,-0.6769300175661002,0.0686261568626873,-0.6870994948401119,-0.0091060939910769,0.0911721254295883,0.0686568654397277,-0.6874069555625848
-0.8793818748949396,0.4520197262296027,0.5998202557668589,1.2528277223515625,-0.385256592283122,-0.1166011430532557,0.0374088176610545,-0.4269484624359627,-0.0349015664154261,0.3983330949586889,0.0546011320759225,-0.623165094344774,0.0554214014647387,-0.6325268645432445,-0.0073539378267228,0.0839308121528166,0.0554462012270189,-0.6328099053083935
-0.878716459123732,0.4513989086206868,0.6007914827844667,1.2538135400518509,-0.385387401715666,-0.1156148842229357,0.0292671430720794,-0.3866319975727847,-0.0273055712953844,0.360718760584195,0.0427177132098215,-0.5643200208978172,0.0433594587409889,-0.5727977652419405,-0.0057534229621467,0.0760052802987116,0.0433788610700682,-0.573054078652234
-0.8782055773706013,0.4509222676961095,0.6015371551639198,1.254570414620778,-0.3854878323864071,-0.1148576709705953,0.0219672939484718,-0.3427521041605477,-0.0204949799712057,0.3197798293379517,0.0320630052812305,-0.5002738412674717,0.0325446858022342,-0.5077894238646827,-0.0043183966780802,0.0673792389487673,0.032559248777007,-0.5080166475845331
-0.8778316749158346,0.450573425306164,0.6020828954089386,1.2551243534873304,-0.3855613352549157,-0.1143034842295431,0.0155813675655256,-0.2952259117678792,-0.0145370575423875,0.2754389850136522,0.0227422399733967,-0.4309055994959792,0.0230838952207186,-0.4373790673399291,-0.0030630320736251,0.0580363971844737,0.0230942247161625,-0.4375747840957231
-0.8775757385201282,0.4503346425359149,0.6024564548480944,1.2555035248865547,-0.3856116480009285,-0.1139241431601133,0.010183118607169,-0.2439705499634055,-0.0095006154325547,0.2276189114049653,0.0148630680887205,-0.3560943396255887,0.0150863550300996,-0.3614439225961412,-0.0020018280662534,0.0479604640873234,0.0150931058160495,-0.3616056601762238
-0.8774172632764135,0.4501867887787112,0.6026877620172031,1.2557383069687822,-0.3856428015407147,-0.1136892560184731,0.0058479591659441,-0.1889031483157577,-0.0054560113894606,0.1762422923055737,0.0085355595487506,-0.2757191056985455,0.0086637887254781,-0.2798612165617911,-0.0011496093918077,0.0371351487388089,0.0086676655653814,-0.2799864478164764
-0.877334219461682,0.450109310809707,0.6028089710416994,1.2558613369088651,-0.3856591265434443,-0.1135661710254107,0.0026529587430346,-0.129940836393553,-0.0024751494849795,0.1212318115091637,0.003872203394204,-0.1896589417571057,0.0039303752633745,-0.1925081761653402,-0.0005215266045002,0.0255441602204222,0.0039321340130573,-0.1925943190069077
-0.8773030193888174,0.4500802018593753,0.602854510019025,1.255907560015396,-0.3856652599475554,-0.1135199272351372,0.0006768442482432,-0.0670007437654245,-0.0006314801151159,0.0625101528094145,0.0009879077849479,-0.0977928918435075,0.0010027490617545,-0.0992620283352536,-0.0001330560769134,0.0131712076136563,0.0010031977681688,-0.099306445737934
-0.8772984842584215,0.4500759706870313,0.602861129401011,1.2559142788399436,-0.3856661514771213,-0.1135132054040752,0.0,0.0,0.0,0.0,0.0,0.0,0.0,0.0,0.0,0.0,0.0,0.0
-0.8773102859752611,0.4500641691480003,0.6028613790657824,1.2558994549654734,-0.3856638591220456,-0.1135105133069482,-0.0017613438787159,-0.174355252640562,-0.0017613173417355,-0.1743526257475561,3.726114791096763e-05,0.0036884772679542,-0.0022123849361685,-0.2190037613580956,0.0003421218823797,0.0338666105790034,0.0004017812713192,0.0397722874639199
-0.8773914775603232,0.449982978786197,0.6028630966699917,1.2557974720183012,-0.3856480885401334,-0.1134919926428911,-0.0069037635388988,-0.3381435202725978,-0.0069036595245495,-0.3381384256922228,0.0001460487968725,0.0071534104590627,-0.0086716640860981,-0.424734567482358,0.0013409809441382,0.0656806993047325,0.0015748218874602,0.0771341332633583
-0.877607581509086,0.4497668780933267,0.6028676683389862,1.255526028646756,-0.385606112699621,-0.113442697033828,-0.0152180758079317,-0.4915804556513979,-0.0152178465274466,-0.4915730493401958,0.0003219376865879,0.0103993616973428,-0.019115087111487,-0.6174632950102307,0.0029559456302211,0.0954841543782773,0.0034714049420039,0.1121347300853485
-0.878019979784126,0.4493544860316133,0.602876392605332,1.2550080243306052,-0.3855260088222057,-0.1133486246012737,-0.0264994105683015,-0.6348817115322245,-0.0264990113195538,-0.6348721461976428,0.0005605937992408,0.0134308931068116,-0.0332853212067807,-0.7974608205791212,0.0051472221495953,0.1233188640007223,0.0060447973822713,0.1448232706169177
-0.8786860000762209,0.448688475773997,0.6028904822336637,1.2541714510304005,-0.3853966416277651,-0.1131966982892594,-0.0405472107576022,-0.7682629406703605,-0.0405465998601228,-0.7682513657707519,0.0008577743594951,0.0162525668114864,-0.0509304510991742,-0.9649980208264636,0.0078758544752498,0.1492267163731561,0.0092492500093245,0.1752489475450975
-0.879659002065451,0.4477154884443317,0.602911066045534,1.2529492848368209,-0.3852076465790769,-0.1129747461872576,-0.0571652323685333,-0.8919397958210872,-0.0571643710985296,-0.8919263575657101,0.0012093278344951,0.0188689449353847,-0.0718039790486119,-1.120345772389689,0.0111037243441954,0.1732495996966669,0.0130399974779662,0.2034609535569197
-0.8809884636823018,0.4463860468575826,0.6029391907442632,1.2512793776200204,-0.3849494131265383,-0.1126714818531074,-0.076161544448898,-1.0061279297396692,-0.0761603969742713,-1.0061127710886872,0.0016111939338654,0.0212845896025235,-0.0956648248477837,-1.2637749519062091,0.0147935512574642,0.1954294021723399,0.0173732582967391,0.2295084813394116
-0.8827200673687658,0.4446544692600234,0.602975822739789,1.249104348678971,-0.3846130679528856,-0.1122764846359394,-0.0973485291016078,-1.1110429951813927,-0.0973470624169719,-1.1110262558458748,0.0020594036097111,0.0235040629369203,-0.122277325822132,-1.3955564360134618,0.0189088924801107,0.2158080120012641,0.0222062348279274,0.2534407235796059
-0.8848957863394451,0.4424787830694346,0.6030218499735159,1.246371476390809,-0.384190458217914,-0.1117801799991015,-0.1205428814846764,-1.2069006449015245,-0.1205410653463755,-1.2068824613434448,0.0025500790566174,0.025531927062592,-0.1514112368298432,-1.51596110134886,0.0234141430412104,0.2344273173845249,0.0274971132875549,0.2753068729645306
-0.8875539708426528,0.4398206386153001,0.6030780837431651,1.2430325898601782,-0.3836741348031966,-0.1111738198430833,-0.1455656098112268,-1.2939165316553485,-0.1455634166723536,-1.2938970370875869,0.00307943371165,0.0273727441035562,-0.182841730261857,-1.625259824549839,0.0282745357338612,0.2513292065232113,0.033205063745387,0.295156122181218
-0.8907294344215155,0.4366452228790056,0.6031452605276236,1.2390439605685777,-0.3830573355568048,-0.1104494628284421,-0.1722420353494834,-1.3723063081981337,-0.1722394402948973,-1.372285632584475,0.003643772254355,0.0290310761838299,-0.2163493960418567,-1.7237234822538148,0.0334561411151822,0.2665555676184087,0.0392902401249289,0.3130376639166964
-0.8944535401750757,0.4329211732340352,0.6032240438117945,1.2343661940237038,-0.382333968538027,-0.1095999546987273,-0.2004017924227806,-1.442285627285162,-0.2003987731041256,-1.4422638973402968,0.0042394906067587,0.0305114854274307,-0.2517202416262792,-1.81162295109822,0.038925867506315,0.2801482888712061,0.0457137802034271,0.3290006908579977
-0.8987542870193932,0.42862049118617,0.6033150259114459,1.2289641214087983,-0.3814985952620888,-0.1086189086034062,-0.2298788284095533,-1.5040701416717035,-0.2298753649802766,-1.504047480861228,0.0048630759333679,0.0318185339583754,-0.2887456920043044,-1.889229107720474,0.0446514609924217,0.2921492584826892,0.0524378056118678,0.3430943956921505
-0.903656395948648,0.4237184561136844,0.6034187297980611,1.2228066912319908,-0.3805464139448722,-0.1075006854207889,-0.2605114037433473,-1.5578755041130394,-0.2605074787937168,-1.5578520326534544,0.0055111066411695,0.0329567839006817,-0.3272225896978669,-1.9568128287580056,0.0506015054226877,0.3026003646539463,0.059425421834979,0.3553679711061864
-0.9091813962962416,0.4181935390075451,0.6035356109236877,1.2158668609756451,-0.3794732427476354,-0.1062403740809537,-0.2921420919128087,-1.6039173673644416,-0.2921376904049312,-1.6038932022231531,0.006180252379631,0.0339307973783665,-0.3669531947616428,-2.014644990848236,0.0567454224103187,0.3115434955860636,0.066640718211228,0.3658706097871345
-0.9153477119958998,0.4120273162116068,0.6036660590457876,1.2081214887457037,-0.3782755030217319,-0.1048337718886717,-0.3246177794616942,-1.642411384181189,-0.3246128886645341,-1.6423866390765096,0.0068672740407001,0.0347451365154473,-0.407745184783064,-2.062996470628595,0.0630534713325433,0.3190205394801294,0.074048767932824,0.3746515044220259
-0.9221707478427744,0.4052043831628119,0.6038104000520865,1.1995512249210334,-0.3769502025533311,-0.1032773648463329,-0.3577896659888604,-1.6735732073185543,-0.3577842754132572,-1.673547992719702,0.007569023758805,0.0354043634359413,-0.4494116548823036,-2.1021381447365024,0.0694967493306107,0.32507338453723,0.0816156280457155,0.38175984769789
-0.929662975754546,0.3977122681313855,0.6039688977854233,1.1901404038027694,-0.3754949188081365,-0.1015683079768706,-0.3915132641482758,-1.6976184895318172,-0.3915073654819624,-1.6975929126589135,0.008282444910854,0.0359130402638657,-0.4917711177122907,-2.132340889809388,0.0760471913097933,0.3297439189584531,0.089308339449593,0.3872448323017578
-0.9378340210325242,0.3895413459610359,0.6041417558686001,1.1798769352636618,-0.3739077821761065,-0.0997044056466872,-0.4256483996490076,-1.7147628835762498,-0.4256419866916285,-1.7147370484003237,0.0090045721162359,0.0362757291232378,-0.5346475034586952,-2.153875582484673,0.0826775699393836,0.3330740309448855,0.0970949268978861,0.391155650920659
-0.9466907486227528,0.3806847518091488,0.6043291195292313,1.1687521963974188,-0.3721874592161728,-0.0976840918885788,-0.4600592112552354,-1.7252220422071307,-0.4600522798533646,-1.7251960494501146,0.00973253123682,0.0364969921380749,-0.5778701598399433,-2.1670130993997843,0.0893614956526974,0.3351056086976148,0.1049443989977665,0.3935414962416239
-0.9562373493771088,0.3711382948869882,0.6045310774245938,1.1567609231680536,-0.3703331359009613,-0.0955064107246608,-0.4946141507862378,-1.7292116181797343,-0.4946066987683969,-1.729185565314468,0.0104635393769555,0.0365813914323942,-0.6212738521072018,-2.1720243171921467,0.0960734166470708,0.3358805404177279,0.112826748210145,0.3944515609516825
-0.9664754263144067,0.3609003721998908,0.604747663466476,1.1439011020592271,-0.3683445008615102,-0.0931709964892928,-0.5291859831164049,-1.7269472642493375,-0.5291780102280816,-1.726921245499565,0.0111949048834724,0.036533489130213,-0.6646987630443936,-2.169180112499184,0.102788618883863,0.3354407143063123,0.1207129508496746,0.3939350377378653
-0.9774040808814992,0.3499718822874664,0.6049788586460279,1.1301738617235966,-0.3662217286319912,-0.0906780541520043,-0.5636517861752265,-1.7186446331712162,-0.5636432940138923,-1.7186187395115868,0.0119240273456808,0.0363578473555485,-0.7079904929681831,-2.158751361958323,0.1094832260884537,0.3338280185644552,0.1285749670847473,0.3920411192872026
-0.989019999214381,0.3383561389637924,0.6052245928586103,1.1155833646321558,-0.3639654628944272,-0.0880283396404192,-0.5978929509473039,-1.7045193777006449,-0.5978839428974325,-1.704493696856713,0.0126483975953712,0.036059028232418,-0.75100005972799,-2.1410089422069856,0.1161341997502455,0.3310843413932434,0.1363857409374973,0.3888189982867244
-1.0013175383992878,0.326058785057615,0.6054847467286449,1.1001366987235854,-0.3615767997234137,-0.0852231401631816,-0.6317951814723378,-1.6847871505929013,-0.631785662640423,-1.684761767041128,0.0133655977068145,0.0356415938848388,-0.7935838987059757,-2.1162237298826017,0.1227193391226617,0.3272515709937645,0.1441192002837977,0.3843178674234605
-1.014288812733803,0.3130877061525424,0.6057591534344635,1.0838437690535925,-0.3590572708308367,-0.0822642545328803,-0.6652484948451405,-1.6596636046032591,-0.6652384719947141,-1.6596385995710103,0.0140733009967619,0.0351101064368281,-0.8356038628170566,-2.084666601622592,0.1292172812231482,0.3223715955671052,0.151750256853264,0.378586919384442
-1.0279237799879546,0.2994529443272469,0.6060476005331575,1.0667171894442609,-0.3564088268105939,-0.0791539734889751,-0.6981472212156243,-1.6293643924869974,-0.6981367027022743,-1.629339843952542,0.0147692720244449,0.0344691280124031,-0.8769272225088913,-2.046608434064385,0.1356075008331719,0.3164863033143537,0.1592548062292506,0.3716753468566985
-1.0422103276653227,0.2851666118956578,0.6063498317854282,1.0487721741333915,-0.3536338203833128,-0.0758950600207203,-0.7303900037888114,-1.594105166999387,-0.7303789994952015,-1.5940811496919052,0.0154513665915754,0.0337232207355812,-0.9174266657618936,-2.002320103845399,0.1418703104982223,0.3096375824365959,0.166609727848854,0.3636323425272601
-1.0571343592641358,0.2702428051471638,0.6066655489804355,1.0300264294238526,-0.3507349896410712,-0.072490729690092,-0.7618797988248261,-1.5541015808957108,-0.7618683200957108,-1.554078166295281,0.0161175317423456,0.0328769467303796,-0.9569802980892184,-1.9520724876030668,0.1479868605278097,0.30186732113492,0.1737928850029099,0.3545070990831576
-1.0726798805383797,0.2546975180868054,0.606994413760648,1.0105000453329174,-0.3477154412921164,-0.0689446309547112,-0.7925238756389015,-1.5095692869312374,-0.7925119352161474,-1.5095465432688493,0.0167658057634282,0.0319348681208155,-0.9954716425367772,-1.8961364619748091,0.153939138995467,0.2932174076104127,0.1807831248359961,0.3443488092114203
-1.0888290857588911,0.2385485561754776,0.6073360494466928,0.9902153872416184,-0.3445786339055849,-0.0652608254907707,-0.8222338166013722,-1.46072393786125,-0.822221428558974,-1.4607019301187942,0.0173943181839759,0.0309015470309063,-1.032789639683221,-1.8347829035980547,0.1597099717387479,0.2837297300641618,0.1875602783464295,0.3332066655990797
-1.1055624439744691,0.2218154500701228,0.607690042862205,0.9691969875440838,-0.3413283611562217,-0.061443768515959,-0.8509255171376819,-1.4077811864410197,-0.8509126968167816,-1.4077599763512942,0.0180012897756222,0.0297815455846692,-1.0688286476399569,-1.7682826891102257,0.1652830223592288,0.2734461766972538,0.1941051603862685,0.3211298609331652
-1.1228587852729712,0.2045193693639306,0.6080559461586764,0.9474714372968864,-0.3379687350691002,-0.0574982891123861,-0.8785191857283802,-1.350956685425821,-0.8785059496722841,-1.3509363314725296,0.0185850325524806,0.0285794259061213,-1.1034884420511393,-1.6969066951487426,0.1706427922225075,0.2624086357107759,0.2003995696613124,0.3081675879007063
-1.1406953870424146,0.1866830363265369,0.6084332786403067,0.925067277868392,-0.3345041692643417,-0.053429570549509,-0.9049393439091168,-1.290466087570935,-0.9049257097983154,-1.290446644988687,0.0191439497711451,0.02729975011928,-1.1366742160936651,-1.6209257983510397,0.1757746204582033,0.2506589953058161,0.2064262887311,0.2943690391887344
-1.1590480602320845,0.1683306396442169,0.608821528588852,0.902014892588096,-0.3309393622018347,-0.0492431306070561,-0.9301148262706542,-1.2265250456316306,-0.930100812857839,-1.2265065664059402,0.01967653593069,0.0259470803481626,-1.1682965804771888,-1.540610875354533,0.1806646839599576,0.2382391436834602,0.2121690840089119,0.279783407484279
-1.1778912356136286,0.1494877481600884,0.6092201550884745,0.8783463983959781,-0.3272792804259551,-0.0449448018979531,-0.9539787804588544,-1.1593492123631928,-0.9539644075039349,-1.159331745230478,0.0201813767726699,0.0245259787167864,-1.1982715634441043,-1.4562328027966576,0.185299997385433,0.2251909690447974,0.2176127057617681,0.2644598854743712
-1.1971980500421662,0.1301812246143031,0.6096285898505924,0.8540955374918378,-0.3235291418102845,-0.0405407121912475,-0.9764686671746896,-1.089154240520888,-0.9764539553798142,-1.089137830968475,0.0206571492811198,0.0230410073491684,-1.2265206107695614,-1.3680624573148252,0.1896684131563146,0.2115563595909128,0.2227428881104305,0.2484476658460398
-1.2169404327173845,0.1104391393842506,0.6100462390387297,0.8292975689846489,-0.3196943988023315,-0.0360372647350346,-0.9975262601742332,-1.016155782860001,-0.997511231118805,-1.0161404731261183,0.0211026216825551,0.0214967283693261,-1.2529705857614537,-1.276370715546475,0.1937586214583086,0.1973772035228952,0.2275463490294005,0.2317959412863168
-1.237089191444645,0.0902906842247493,0.6104724850933652,0.8039891605418952,-0.3157807216682496,-0.0314411185793819,-1.0170976462686676,-0.9405694921357988,-1.0170823223443646,-0.940555321209582,0.0215166534459715,0.0198977039012767,-1.2775537692604264,-1.1814284541290188,0.1975601502411434,0.1826953890418307,0.2320107903469208,0.21455390448223
-1.2576140988960822,0.0697660860082506,0.6109066885567822,0.7782082800389247,-0.3117939817375583,-0.0267591688992551,-1.035133225324278,-0.8626110211035667,-1.0351176296700686,-0.8625980247250573,0.0218981952828449,0.0182484960690374,-1.3002078596398703,-1.083506549699894,0.2010633652185688,0.1675528043488076,0.2361248977449742,0.196770748120812
-1.27848397887171,0.0488965204650298,0.611348189897919,0.7519940872082856,-0.3077402346478609,-0.021998527317442,-1.051587710262459,-0.7824960225185706,-1.0515718666996214,-0.7824842331787156,0.0222462891471319,0.0165536669966256,-1.3208759728059278,-0.9828758788965156,0.2042594698683567,0.1519913376449116,0.2398783407592846,0.178495664889091
-1.2996667925605174,0.0277140259233902,0.611796311337217,0.7253868252890805,-0.3036257035895661,-0.0171665022274797,-1.066420127059705,-0.7004401491360945,-1.0664040600268463,-0.7004295960767464,0.0225600682352689,0.0148177788080584,-1.339506642197486,-0.8798073183563138,0.2071405054323001,0.1360528771312315,0.2432617727793161,0.1597778474740989
-1.3211297248015792,0.006251417049854,0.612250358671472,0.6984277126763014,-0.2994567625506055,-0.0122705791165774,-1.079593814747621,-0.6166590537114081,-1.0795775492356945,-0.6166497629253227,0.0228387569861733,0.0130453936273531,-1.356053818786184,-0.7745717447167082,0.2096993509162146,0.1197793110088534,0.2462668310482737,0.1406664885628652
-1.3428392703451484,-0.0154578014106333,0.6127096230986823,0.6711588345701857,-0.2952399195611552,-0.0073184008885438,-1.0910764254129153,-0.531368388999796,-1.0910599869002384,-0.531360383230636,0.0230816710812422,0.011241073578527,-1.3704768710764077,-0.6674400346151352,0.2119297230899369,0.1032125274788655,0.2488861366631027,0.1212107808424201
-1.3647613201137672,-0.0373795208945125,0.6131733830428991,0.6436230346255501,-0.2909817999383534,-0.0023177481867104,-1.1008399241974018,-0.4447838077565236,-1.1008233385846724,-0.4447771064988552,0.0232882174443537,0.0094093807855974,-1.382740585105292,-0.5586830646890073,0.2138261764873256,0.0863944147423536,0.2511132945744891,0.1014599169997934
-1.386861247463362,-0.0594791152794061,0.6136409059790763,0.6158638066011466,-0.2866891295310216,0.0027234802831414,-1.108860589298,-0.3571209627368779,-1.108843882843319,-0.3571155822361751,0.0234578942418656,0.0075548773725815,-1.39281516444272,-0.4485717115757577,0.2153841034062614,0.0693668610004064,0.2529428935868599,0.0814630897220163
-1.4091039944443513,-0.0817215271439276,0.6141114502579194,0.5879251860089962,-0.282368717964383,0.0077972874298574,-1.1151190119667365,-0.2685955066961218,-1.115102211220622,-0.2685914599487611,0.0235902908826165,0.0056821254634965,-1.4006762301913245,-0.3373768519128024,0.2165997339086463,0.0521717544541093,0.2543705063583824,0.0612694916961169
-1.431454158062743,-0.1040713540274768,0.6145842669307353,0.5598516417637458,-0.2780274418847831,0.012895597453983,-1.119600096510739,-0.1794230923895394,-1.1195832282511464,-0.1794203891428107,0.0236850880179251,0.0037956871823598,-1.4063048209864846,-0.2253693623375765,0.2174701358204041,0.0348509833045518,0.2553926894009641,0.0409283156091284
-1.453876076541241,-0.1264929346900505,0.6150586015742826,0.5316879678320017,-0.2736722282044079,0.0180102755248399,-1.1222930602922463,-0.0898193725724088,-1.1222761514595851,-0.089818019324495,0.0237420575415906,0.0019001246531885,-1.4096873929963278,-0.1128201194875018,0.2179932147314804,0.017446435752819,0.2560069830802537,0.0204887541480788
-1.476333915580342,-0.1489504353720362,0.6155336961156204,0.5034791748816851,-0.2693100373460051,0.0231331474575996,-1.1231914337286006,-8.881784197001252e-16,-1.123174511360752,0.0,0.0237610625898925,0.0,-1.4108158199217349,-8.881784197001252e-16,0.218167713995843,0.0,0.2562119116156403,-6.661338147750939e-16
-1.4987917546194436,-0.1714079360540228,0.6160087906569581,0.4752703819313673,-0.2649478464876021,0.0282560193903596,-1.1222930602922467,0.0898193725724096,-1.122276151459584,0.0898180193244995,0.0237420575415906,-0.0019001246531885,-1.4096873929963287,0.1128201194875035,0.2179932147314804,-0.0174464357528194,0.2560069830802538,-0.0204887541480798
-1.5212136730979409,-0.1938295167165956,0.6164831253005054,0.4471067079996245,-0.2605926328072271,0.0333706974612162,-1.11960009651074,0.1794230923895421,-1.1195832282511464,0.1794203891428116,0.0236850880179251,-0.0037956871823597,-1.4063048209864857,0.2253693623375747,0.2174701358204042,-0.0348509833045523,0.2553926894009643,-0.0409283156091291
-1.5435638367163331,-0.216179343600146,0.6169559419733215,0.4190331637543726,-0.2562513567276269,0.038469007485342,-1.115119011966736,0.2685955066961236,-1.1151022112206213,0.2685914599487704,0.0235902908826165,-0.0056821254634966,-1.4006762301913245,0.3373768519128042,0.2165997339086462,-0.0521717544541104,0.2543705063583825,-0.0612694916961187
-1.565806583697322,-0.2384217554646663,0.6174264862521645,0.3910945431622237,-0.2519309451609886,0.0435428146320578,-1.108860589298001,0.3571209627368743,-1.1088438828433191,0.3571155822361769,0.0234578942418656,-0.0075548773725815,-1.39281516444272,0.4485717115757515,0.2153841034062613,-0.0693668610004063,0.25294289358686,-0.0814630897220165
-1.5879065110469175,-0.2605213498495609,0.6178940091883416,0.3633353151378191,-0.2476382747536565,0.04858404310191,-1.1008399241974018,0.4447838077565258,-1.1008233385846724,0.4447771064988597,0.0232882174443536,-0.0094093807855975,-1.3827405851052923,0.5586830646890073,0.2138261764873255,-0.0863944147423541,0.2511132945744889,-0.101459916999794
-1.6098285608155356,-0.2824430693334392,0.6183577691325585,0.3357995151931847,-0.2433801551308549,0.0535846958037431,-1.0910764254129148,0.5313683889997938,-1.091059986900237,0.531360383230636,0.0230816710812422,-0.0112410735785271,-1.3704768710764084,0.667440034615133,0.2119297230899368,-0.1032125274788653,0.2488861366631024,-0.1212107808424209
-1.6315381063591046,-0.3041522877939265,0.6188170335597687,0.3085306370870689,-0.2391633121414046,0.0585368740317767,-1.079593814747621,0.6166590537114089,-1.0795775492356952,0.6166497629253245,0.0228387569861733,-0.0130453936273531,-1.356053818786184,0.774571744716706,0.2096993509162145,-0.1197793110088532,0.2462668310482736,-0.1406664885628654
-1.653001038600166,-0.3256148966674626,0.6192710808940237,0.2815715244742899,-0.2349943711024441,0.063432797142679,-1.0664201270597058,0.700440149136095,-1.0664040600268463,0.7004295960767504,0.0225600682352689,-0.0148177788080584,-1.3395066421974855,0.8798073183563151,0.2071405054323004,-0.1360528771312319,0.2432617727793159,-0.1597778474740998
-1.6741838522889738,-0.3467973912091023,0.6197192023333218,0.2549642625550847,-0.2308798400441492,0.0682648222326414,-1.0515877102624591,0.7824960225185693,-1.051571866699622,0.7824842331787183,0.0222462891471319,-0.0165536669966256,-1.3208759728059285,0.9828758788965112,0.2042594698683568,-0.1519913376449118,0.2398783407592845,-0.178495664889092
-1.6950537322646015,-0.3676669567523231,0.6201607036744585,0.2287500697244455,-0.2268260929544518,0.0730254638144544,-1.0351332253242784,0.8626110211035636,-1.0351176296700686,0.8625980247250613,0.021898195282845,-0.0182484960690374,-1.300207859639873,1.0835065496998926,0.201063365218569,-0.1675528043488072,0.2361248977449741,-0.196770748120812
-1.7155786397160389,-0.3881915549688218,0.6205949071378756,0.2029691892214746,-0.2228393530237605,0.0777074134945812,-1.0170976462686672,0.940569492135797,-1.0170823223443652,0.940555321209585,0.0215166534459715,-0.0198977039012767,-1.2775537692604289,1.1814284541290156,0.1975601502411434,-0.1826953890418308,0.2320107903469206,-0.2145539044822304
-1.7357273984432997,-0.4083400101283231,0.621021153192511,0.1776607807787211,-0.2189256758896786,0.082303559650234,-0.997526260174233,1.0161557828599983,-0.9975112311188048,1.016140473126118,0.0211026216825551,-0.0214967283693261,-1.2529705857614544,1.2763707155464736,0.1937586214583087,-0.1973772035228949,0.2275463490294006,-0.2317959412863166
-1.7554697811185171,-0.4280820953583756,0.6214388023806483,0.1528628122715323,-0.2150909328817257,0.0868070071064468,-0.9764686671746898,1.0891542405208856,-0.976453955379815,1.0891378309684754,0.0206571492811199,-0.0230410073491685,-1.2265206107695628,1.3680624573148226,0.1896684131563147,-0.2115563595909124,0.2227428881104305,-0.2484476658460401
-1.7747765955470554,-0.4473886189041612,0.6218472371427662,0.128611951367392,-0.2113407942660551,0.0912110968131524,-0.9539787804588556,1.1593492123631923,-0.953964407503936,1.1593317452304834,0.0201813767726699,-0.0245259787167864,-1.1982715634441057,1.4562328027966558,0.1852999973854331,-0.2251909690447977,0.2176127057617681,-0.2644598854743725
-1.7936197709285993,-0.4662315103882894,0.6222458636423888,0.104943457175274,-0.2076807124901754,0.0955094255222553,-0.9301148262706532,1.2265250456316288,-0.9301008128578364,1.2265065664059396,0.01967653593069,-0.0259470803481626,-1.1682965804771888,1.5406108753545311,0.1806646839599575,-0.2382391436834601,0.2121690840089118,-0.2797834074842793
-1.8119724441182687,-0.484583907070609,0.622634113590934,0.0818910718949785,-0.2041159054276684,0.0996958654647083,-0.9049393439091192,1.290466087570934,-0.9049257097983152,1.290446644988689,0.0191439497711451,-0.0272997501192801,-1.1366742160936667,1.6209257983510383,0.1757746204582031,-0.250658995305816,0.2064262887311,-0.2943690391887354
-1.8298090458877123,-0.5024202401080031,0.6230114460725643,0.0594869124664836,-0.20065133962291,0.1037645840275854,-0.8785191857283805,1.3509566854258177,-0.8785059496722845,1.3509363314725356,0.0185850325524806,-0.0285794259061214,-1.1034884420511402,1.6969066951487406,0.1706427922225074,-0.2624086357107766,0.2003995696613125,-0.3081675879007068
-1.8471053871862144,-0.5197163208141955,0.6233773493690359,0.0377613622192862,-0.1972917135357884,0.1077100634311583,-0.8509255171376804,1.4077811864410157,-0.85091269681678,1.407759976351301,0.0180012897756222,-0.0297815455846692,-1.0688286476399584,1.7682826891102223,0.1652830223592287,-0.2734461766972536,0.1941051603862683,-0.3211298609331656
-1.863838745401792,-0.5364494269195503,0.6237313427845479,0.0167429625217518,-0.1940414407864253,0.11152712040597,-0.8222338166013721,1.4607239378612462,-0.8222214285589731,1.4607019301187982,0.0173943181839759,-0.0309015470309063,-1.0327896396832197,1.8347829035980467,0.1597099717387475,-0.2837297300641612,0.1875602783464289,-0.3332066655990799
-1.8799879506223052,-0.5525983888308785,0.6240729784705927,-0.0035416955695486,-0.1909046333998937,0.1152109258699106,-0.7925238756388993,1.509569286931244,-0.7925119352161456,1.5095465432688524,0.0167658057634282,-0.0319348681208156,-0.9954716425367768,1.8961364619748124,0.1539391389954667,-0.2932174076104137,0.1807831248359958,-0.3443488092114224
-1.8955334718965475,-0.5681436758912357,0.6244018432508053,-0.023068079660482,-0.1878850850509389,0.1187570246052913,-0.7618797988248263,1.5541015808957095,-0.7618683200957097,1.5540781662952856,0.0161175317423456,-0.0328769467303797,-0.9569802980892206,1.9520724876030684,0.1479868605278095,-0.3018673211349205,0.1737928850029095,-0.3545070990831593
-1.9104575034953617,-0.5830674826397308,0.6247175604458125,-0.0418138243700225,-0.1849862543086972,0.1221613549359197,-0.7303900037888118,1.594105166999391,-0.7303789994951995,1.5940811496919114,0.0154513665915754,-0.0337232207355812,-0.9174266657618908,2.0023201038453955,0.1418703104982217,-0.3096375824365971,0.1666097278488536,-0.3636323425272616
-1.9247440511727287,-0.5973538150713193,0.6250197916980832,-0.0597588396808907,-0.1822112478814162,0.1254202684041744,-0.698147221215625,1.6293643924869947,-0.6981367027022731,1.6293398439525415,0.0147692720244449,-0.0344691280124032,-0.8769272225088933,2.0466084340643853,0.1356075008331722,-0.3164863033143534,0.1592548062292502,-0.3716753468566987
-1.9383790184268817,-0.6109885768966157,0.6253082387967772,-0.0768854192902226,-0.1795628038611733,0.1285305494480797,-0.6652484948451391,1.6596636046032618,-0.6652384719947122,1.6596385995710108,0.0140733009967619,-0.0351101064368281,-0.8356038628170541,2.0846666016225903,0.1292172812231475,-0.3223715955671054,0.1517502568532631,-0.3785869193844426
-1.951350292761396,-0.6239596558016873,0.6255826455025958,-0.0931783489602151,-0.1770432749685965,0.1314894350783809,-0.6317951814723379,1.6847871505928964,-0.6317856626404232,1.6847617670411277,0.0133655977068145,-0.0356415938848388,-0.7935838987059753,2.1162237298825985,0.1227193391226617,-0.3272515709937651,0.1441192002837976,-0.3843178674234617
-1.9636478319463035,-0.6362570097078648,0.6258427993726304,-0.1086250148687868,-0.1746546117975828,0.1342946345556186,-0.597892950947303,1.704519377700647,-0.5978839428974299,1.704493696856714,0.0126483975953712,-0.036059028232418,-0.7510000597279909,2.14100894220698,0.1161341997502454,-0.3310843413932423,0.1363857409374969,-0.3888189982867249
-1.9752637502791848,-0.6478727530315385,0.6260885335852129,-0.1232155119602269,-0.172398346060019,0.1369443490672036,-0.5636517861752264,1.718644633171209,-0.5636432940138922,1.7186187395115802,0.0119240273456807,-0.0363578473555485,-0.7079904929681851,2.1587513619583127,0.109483226088453,-0.3338280185644553,0.1285749670847471,-0.3920411192872026
-1.9861924048462776,-0.6588012429439629,0.6263197287647647,-0.1369427522958575,-0.1702755738304998,0.1394372914044922,-0.5291859831164034,1.7269472642493362,-0.5291780102280796,1.7269212454995717,0.0111949048834724,-0.0365334891302129,-0.6646987630443917,2.1691801124991805,0.1027886188838622,-0.335440714306312,0.1207129508496738,-0.3939350377378652
-1.996430481783576,-0.6690391656310606,0.626536314806647,-0.1498025734046835,-0.1682869387910489,0.1417727056398601,-0.4946141507862371,1.729211618179736,-0.4946066987683961,1.7291855653144736,0.0104635393769555,-0.0365813914323943,-0.6212738521072012,2.172024317192143,0.0960734166470704,-0.3358805404177274,0.1128267482101443,-0.3944515609516834
-2.005977082537932,-0.6785856225532216,0.6267382727020094,-0.1617938466340494,-0.1664326154758373,0.1439503868037782,-0.4600592112552339,1.725222042207129,-0.4600522798533619,1.7251960494501226,0.0097325312368199,-0.0364969921380748,-0.5778701598399429,2.167013099399785,0.0893614956526969,-0.3351056086976141,0.1049443989977658,-0.3935414962416246
-2.01483381012816,-0.687442216705108,0.6269256363626406,-0.1729185855002919,-0.1647122925159038,0.1459707005618866,-0.4256483996490079,1.714762883576249,-0.4256419866916268,1.7147370484003233,0.0090045721162359,-0.0362757291232379,-0.5346475034586948,2.1538755824846696,0.0826775699393833,-0.3330740309448847,0.0970949268978857,-0.3911556509206599
-2.023004855406138,-0.695613138875457,0.6270984944458173,-0.1831820540393998,-0.1631251558838737,0.1478346028920697,-0.3915132641482728,1.6976184895318165,-0.3915073654819583,1.697592912658919,0.008282444910854,-0.0359130402638657,-0.4917711177122914,2.132340889809381,0.0760471913097931,-0.3297439189584539,0.0893083394495923,-0.3872448323017581
-2.030497083317909,-0.7031052539068838,0.6272569921791542,-0.1925928751576633,-0.1616698721386789,0.1495436597615321,-0.3577896659888608,1.673573207318551,-0.3577842754132518,1.6735479927197012,0.007569023758805,-0.0354043634359412,-0.4494116548823026,2.1021381447364966,0.0694967493306102,-0.3250733845372284,0.0816156280457152,-0.3817598476978894
-2.037320119164784,-0.7099281869556793,0.6274013331854531,-0.2011631389823336,-0.1603445716702781,0.151100066803871,-0.3246177794616969,1.6424113841811945,-0.3246128886645323,1.6423866390765127,0.0068672740407002,-0.0347451365154473,-0.4077451847830673,2.062996470628594,0.0630534713325432,-0.31902053948013,0.0740487679328243,-0.3746515044220277
-2.0434864348644424,-0.7160944097516166,0.627531781307553,-0.2089085112122759,-0.1591468319443749,0.1525066689961531,-0.2921420919128099,1.6039173673644385,-0.2921376904049317,1.603893202223155,0.0061802523796311,-0.0339307973783666,-0.3669531947616491,2.0146449908482325,0.0567454224103185,-0.3115434955860641,0.0666407182112278,-0.3658706097871356
-2.049011435212035,-0.7216193268577571,0.6276486624331796,-0.2158483414686214,-0.158073660747138,0.153766980335988,-0.2605114037433491,1.557875504113042,-0.2605074787937145,1.5578520326534573,0.0055111066411696,-0.0329567839006819,-0.3272225896978717,1.956812828757997,0.0506015054226884,-0.3026003646539452,0.0594254218349785,-0.3553679711061868
-2.05391354414129,-0.726521361930242,0.6277523663197948,-0.2220057716454286,-0.1571214794299212,0.1548852035186053,-0.2298788284095536,1.5040701416717042,-0.2298753649802751,1.5040474808612316,0.0048630759333679,-0.0318185339583755,-0.288745692004305,1.889229107720464,0.0446514609924211,-0.2921492584826888,0.0524378056118672,-0.3430943956921508
